assets/Presetpro - Cali Vibes.cube
#Created by: Adobe Photoshop Export Color Lookup Plugin
#Copyright: (C) Copyright 2018 https://www.presetpro.com and Tim Martin
TITLE "Presetpro - Cali Vibes"
#LUT size
LUT_3D_SIZE 8
#data domain
#LUT data points
DOMAIN_MIN 0.000000 0.000000 0.000000
DOMAIN_MAX 0.903226 0.903226 0.903226
0.132629 0.143280 0.147644
0.152802 0.138885 0.157013
0.234802 0.139160 0.145416
0.362274 0.134186 0.138062
0.552795 0.115387 0.129547
0.747437 0.095367 0.101685
0.931244 0.094269 0.088623
0.963837 0.177551 0.129517
0.123230 0.174164 0.149628
0.174805 0.171143 0.150024
0.229553 0.181549 0.140808
0.353638 0.197510 0.119812
0.538574 0.193451 0.112518
0.713318 0.204926 0.085083
0.898010 0.203888 0.057587
0.965149 0.259369 0.061310
0.077576 0.261536 0.177216
0.127441 0.268707 0.170654
0.294281 0.277710 0.138672
0.392670 0.285675 0.109100
0.481598 0.310944 0.085907
0.659302 0.340973 0.048553
0.813995 0.360138 0.036530
0.910858 0.389130 0.052582
0.011078 0.467804 0.181427
0.011078 0.455627 0.187378
0.198547 0.471344 0.151093
0.559601 0.492401 0.086761
0.695251 0.464874 0.057526
0.726135 0.449402 0.028595
0.821533 0.462646 0.018127
0.920166 0.500854 0.021210
0.089081 0.648285 0.234741
0.086761 0.640259 0.240997
0.079437 0.624451 0.248260
0.494965 0.662170 0.190186
0.834961 0.680725 0.213867
0.915222 0.643341 0.218201
0.932312 0.621185 0.086670
0.945038 0.610931 0.038605
0.123962 0.763214 0.455719
0.124786 0.759949 0.448456
0.131042 0.754608 0.465515
0.414276 0.778442 0.436829
0.759308 0.787689 0.392212
0.928528 0.817200 0.472534
0.963501 0.790771 0.512299
0.968445 0.762665 0.385590
0.358093 0.872101 0.677704
0.388062 0.868896 0.670898
0.464355 0.875183 0.663696
0.559631 0.873596 0.643433
0.697021 0.884186 0.591125
0.898438 0.881317 0.607788
0.973999 0.907288 0.675995
0.975952 0.867004 0.696381
0.644928 0.925537 0.792816
0.649689 0.919739 0.787262
0.675629 0.922852 0.785065
0.711487 0.921509 0.772614
0.756439 0.923706 0.750458
0.856842 0.923920 0.720856
0.934723 0.915833 0.740295
0.970825 0.917725 0.782318
0.132446 0.151917 0.170441
0.152649 0.140625 0.177002
0.232300 0.143402 0.167847
0.367279 0.146149 0.151062
0.557129 0.142303 0.140228
0.756256 0.145020 0.111298
0.928741 0.156830 0.075073
0.967560 0.224030 0.096344
0.127655 0.173645 0.181488
0.169586 0.176575 0.181152
0.232666 0.187256 0.163849
0.352722 0.199921 0.141663
0.548340 0.207092 0.116913
0.714294 0.225830 0.080292
0.877930 0.252258 0.049255
0.957764 0.288757 0.063354
0.085480 0.271393 0.230377
0.124817 0.268799 0.209686
0.276489 0.271790 0.184418
0.372345 0.286255 0.139923
0.505402 0.319550 0.102509
0.677429 0.342865 0.069427
0.829803 0.364899 0.048859
0.915985 0.401947 0.054413
0.009460 0.466034 0.300537
0.009918 0.460571 0.272614
0.165405 0.480286 0.239868
0.544434 0.481781 0.190887
0.676483 0.471466 0.126770
0.713623 0.451813 0.059509
0.837311 0.474243 0.051025
0.927643 0.510712 0.054962
0.082550 0.657166 0.364716
0.083771 0.647186 0.326324
0.075623 0.631866 0.346100
0.482452 0.668732 0.270782
0.821716 0.682526 0.307617
0.904053 0.650543 0.294983
0.929962 0.623352 0.149719
0.948547 0.621765 0.075806
0.123474 0.765045 0.524658
0.121887 0.763123 0.516357
0.222168 0.775330 0.529358
0.441467 0.785400 0.497925
0.753662 0.790253 0.446899
0.925598 0.817413 0.520691
0.962891 0.799896 0.551788
0.967041 0.764618 0.428284
0.420593 0.879944 0.697632
0.442108 0.875183 0.692596
0.500854 0.873749 0.692444
0.587616 0.878113 0.676453
0.709686 0.883881 0.623413
0.893616 0.883728 0.630463
0.973022 0.902222 0.694214
0.977570 0.872772 0.712769
0.668854 0.921082 0.801971
0.670013 0.920319 0.798553
0.695557 0.923462 0.798248
0.727692 0.921631 0.783936
0.773010 0.924805 0.765900
0.855804 0.923431 0.735016
0.932953 0.915314 0.755585
0.970367 0.914948 0.788025
0.122070 0.171234 0.213470
0.126953 0.165558 0.234192
0.181396 0.152344 0.271759
0.313049 0.131195 0.319305
0.491577 0.071686 0.284088
0.724823 0.063843 0.231964
0.941437 0.134949 0.196686
0.966187 0.231049 0.201355
0.135193 0.191162 0.225037
0.141144 0.195190 0.243103
0.212311 0.186157 0.283142
0.345917 0.174347 0.308350
0.544556 0.159882 0.278198
0.760681 0.176117 0.234894
0.942444 0.208252 0.170593
0.969696 0.288544 0.171204
0.100006 0.264587 0.281891
0.130249 0.274597 0.289276
0.240234 0.265839 0.267242
0.373413 0.283234 0.257141
0.557892 0.298431 0.209961
0.762482 0.316956 0.137115
0.926086 0.343903 0.110046
0.972198 0.397705 0.106995
0.009644 0.494934 0.424744
0.011230 0.475922 0.406738
0.181854 0.466797 0.383881
0.480194 0.470490 0.327759
0.593048 0.452576 0.264374
0.699127 0.454376 0.176880
0.863556 0.478333 0.151276
0.953949 0.513794 0.160736
0.077209 0.663025 0.511047
0.073761 0.652985 0.502655
0.149109 0.648102 0.472870
0.434143 0.650421 0.419220
0.781097 0.671021 0.432037
0.866791 0.647003 0.405304
0.903870 0.617279 0.257751
0.955078 0.631775 0.159637
0.209198 0.784943 0.645813
0.297607 0.790131 0.640320
0.339386 0.787292 0.621063
0.495514 0.782318 0.586609
0.728333 0.792542 0.535736
0.908081 0.811768 0.599426
0.951294 0.803680 0.617004
0.962402 0.773987 0.498474
0.548187 0.886017 0.760956
0.545746 0.887817 0.757202
0.562469 0.881104 0.744568
0.635040 0.879852 0.724670
0.716095 0.876495 0.681915
0.890656 0.883301 0.686523
0.967224 0.902649 0.728699
0.976562 0.879547 0.750580
0.726105 0.920074 0.831787
0.726746 0.915009 0.820923
0.724762 0.919922 0.818359
0.756439 0.917542 0.806488
0.790619 0.920898 0.790619
0.857727 0.920532 0.760254
0.932465 0.914215 0.787598
0.966431 0.917206 0.811981
0.100708 0.188599 0.298950
0.114044 0.182770 0.324005
0.153046 0.181763 0.365082
0.235413 0.156494 0.427155
0.395233 0.097382 0.473389
0.606262 0.089722 0.460022
0.791992 0.093018 0.434387
0.918579 0.281006 0.496246
0.114746 0.211487 0.312378
0.124084 0.217926 0.329712
0.161224 0.222046 0.376770
0.274658 0.192505 0.436279
0.400909 0.096741 0.474823
0.606537 0.092682 0.466614
0.842621 0.224030 0.486664
0.930634 0.325348 0.493500
0.128143 0.279877 0.345428
0.148895 0.290497 0.348297
0.181549 0.306671 0.387482
0.320557 0.282654 0.446747
0.491699 0.277008 0.507935
0.707275 0.313110 0.482574
0.884430 0.358368 0.491699
0.951019 0.409485 0.445038
0.013824 0.444916 0.474579
0.013245 0.439728 0.468597
0.215088 0.443390 0.461792
0.379364 0.429230 0.431793
0.557343 0.446564 0.423981
0.755249 0.448334 0.394897
0.917969 0.471375 0.363708
0.971252 0.519348 0.382294
0.095856 0.682892 0.639587
0.089233 0.671844 0.629181
0.221497 0.670929 0.622131
0.441956 0.631866 0.563843
0.705780 0.645477 0.548767
0.788757 0.623016 0.476379
0.860931 0.600769 0.382904
0.944733 0.638794 0.405426
0.215118 0.795227 0.724609
0.316040 0.805939 0.720093
0.462585 0.801392 0.710510
0.554962 0.788330 0.681702
0.693176 0.782654 0.620911
0.895966 0.804932 0.678131
0.933014 0.796173 0.671539
0.959320 0.771179 0.543121
0.569885 0.892303 0.804626
0.595764 0.893372 0.804352
0.656342 0.889465 0.806427
0.683533 0.880768 0.784668
0.747711 0.874908 0.754913
0.880707 0.881683 0.735535
0.961426 0.903442 0.791351
0.972626 0.883423 0.796814
0.758942 0.920441 0.856323
0.769501 0.922852 0.864716
0.786957 0.918610 0.857971
0.789825 0.920288 0.841858
0.813843 0.920013 0.836517
0.860535 0.920074 0.803741
0.932983 0.917511 0.821350
0.963196 0.917664 0.847504
0.071533 0.192322 0.414703
0.094910 0.195709 0.440613
0.133209 0.206757 0.486847
0.182068 0.171936 0.521942
0.316895 0.145996 0.572571
0.521698 0.128906 0.632782
0.690613 0.116302 0.640747
0.771759 0.194336 0.680908
0.083344 0.227264 0.420013
0.106537 0.232422 0.437378
0.143036 0.241730 0.497650
0.199005 0.229614 0.536682
0.319916 0.146606 0.575653
0.523407 0.130341 0.637787
0.684937 0.117249 0.656738
0.820496 0.294373 0.709290
0.117126 0.310730 0.433350
0.132202 0.320740 0.451355
0.161041 0.334747 0.501068
0.216492 0.345276 0.574829
0.410248 0.297882 0.625702
0.589844 0.246521 0.682251
0.781067 0.311066 0.706543
0.889832 0.424194 0.709290
0.088318 0.428894 0.537079
0.129272 0.440521 0.538605
0.222504 0.446075 0.518005
0.294952 0.472839 0.565735
0.500916 0.442383 0.625305
0.684448 0.440521 0.684143
0.847778 0.497284 0.688843
0.932068 0.567688 0.705933
0.133606 0.590546 0.609283
0.130463 0.584320 0.603485
0.295532 0.610291 0.627411
0.457428 0.607971 0.625519
0.579895 0.583954 0.586395
0.743195 0.595490 0.618958
0.884186 0.612366 0.598297
0.955170 0.648407 0.602722
0.242462 0.804535 0.811401
0.333160 0.818451 0.821930
0.471741 0.815552 0.806458
0.599304 0.801300 0.778442
0.681274 0.769775 0.724091
0.855530 0.783875 0.723969
0.903687 0.767395 0.681824
0.936310 0.741364 0.573181
0.567810 0.903320 0.860626
0.591858 0.902405 0.860260
0.637817 0.900970 0.853821
0.728149 0.894318 0.842285
0.774078 0.879517 0.818756
0.863678 0.873535 0.780334
0.951324 0.899902 0.824951
0.970184 0.889526 0.825348
0.716858 0.916626 0.869751
0.731201 0.918152 0.871613
0.778748 0.919159 0.874603
0.835663 0.917938 0.881500
0.845947 0.919067 0.874084
0.876770 0.919678 0.860199
0.931427 0.916748 0.857422
0.958466 0.917694 0.881836
0.009277 0.212189 0.535980
0.061249 0.217896 0.558868
0.110413 0.228302 0.596008
0.163483 0.220093 0.635254
0.213989 0.198547 0.678223
0.455688 0.172241 0.721741
0.642456 0.150665 0.762024
0.690430 0.138428 0.753571
0.041077 0.249786 0.537323
0.076202 0.262085 0.560547
0.124115 0.269653 0.606812
0.179901 0.272125 0.654449
0.214813 0.199463 0.680939
0.461334 0.171783 0.724518
0.637299 0.152771 0.766327
0.685364 0.140686 0.758087
0.089539 0.350922 0.555603
0.109192 0.352783 0.566223
0.148712 0.363312 0.611450
0.195160 0.374603 0.677338
0.264313 0.369476 0.742279
0.516632 0.275177 0.769196
0.675812 0.230011 0.796906
0.779572 0.309601 0.829437
0.129730 0.467865 0.593903
0.142395 0.478577 0.603088
0.175232 0.505188 0.630310
0.214294 0.527008 0.688660
0.316742 0.530701 0.761810
0.627014 0.452667 0.780029
0.778259 0.436829 0.831238
0.872711 0.498291 0.846039
0.237152 0.570343 0.660248
0.276611 0.577484 0.671997
0.347412 0.584137 0.670380
0.431519 0.582489 0.647614
0.516205 0.609375 0.688660
0.697449 0.594299 0.765717
0.840698 0.600677 0.812073
0.928833 0.661560 0.830475
0.341644 0.742737 0.761230
0.385437 0.748840 0.769318
0.476715 0.752930 0.769867
0.579681 0.758209 0.778259
0.680176 0.748718 0.766724
0.752838 0.716461 0.735901
0.874603 0.730560 0.746338
0.939697 0.758667 0.772308
0.571838 0.906555 0.915894
0.596985 0.904938 0.914032
0.659882 0.907043 0.915283
0.735657 0.909882 0.907379
0.804932 0.896484 0.883209
0.849426 0.869293 0.838074
0.936737 0.887543 0.865265
0.961060 0.876984 0.830139
0.734009 0.918640 0.907806
0.742828 0.918915 0.904785
0.781036 0.916290 0.902191
0.824677 0.917664 0.900635
0.873291 0.916870 0.898804
0.907684 0.914856 0.902527
0.929321 0.913605 0.898010
0.949860 0.913330 0.926666
0.013977 0.279022 0.665100
0.063232 0.276978 0.683197
0.111603 0.281677 0.718964
0.160797 0.279053 0.749786
0.194183 0.206177 0.725464
0.336456 0.225861 0.813751
0.586487 0.187103 0.834991
0.644043 0.174438 0.838013
0.058380 0.318634 0.668915
0.087219 0.323975 0.686401
0.128021 0.328003 0.723816
0.171112 0.329376 0.776764
0.220337 0.293793 0.781311
0.338745 0.225952 0.818939
0.580292 0.189331 0.837189
0.644592 0.174652 0.837952
0.102325 0.416687 0.686798
0.115662 0.420502 0.700165
0.149963 0.430267 0.729187
0.195251 0.431000 0.788086
0.254700 0.426270 0.825226
0.378937 0.334076 0.858734
0.587067 0.212891 0.849396
0.684784 0.243958 0.866852
0.140961 0.545135 0.705475
0.155426 0.551758 0.714844
0.181030 0.564301 0.746735
0.215698 0.573730 0.802856
0.265137 0.583527 0.865051
0.530457 0.499146 0.857239
0.728394 0.456268 0.914551
0.804169 0.457672 0.918121
0.295532 0.610046 0.731049
0.309418 0.608917 0.723846
0.355347 0.611725 0.715057
0.411072 0.630341 0.731720
0.461212 0.653107 0.795074
0.615356 0.635162 0.839233
0.788818 0.607574 0.900696
0.883423 0.603821 0.926514
0.455139 0.718140 0.782135
0.472992 0.718475 0.783783
0.523407 0.720612 0.783600
0.577942 0.721191 0.784851
0.624054 0.715027 0.769226
0.694275 0.737762 0.813751
0.832123 0.730560 0.876556
0.926819 0.740509 0.916168
0.570038 0.848938 0.869659
0.587585 0.854034 0.877350
0.633301 0.853882 0.878113
0.701202 0.858398 0.884399
0.776428 0.855377 0.882446
0.835663 0.857666 0.874146
0.882660 0.825073 0.850006
0.942169 0.842346 0.879089
0.727844 0.917603 0.931976
0.743103 0.920166 0.932434
0.787445 0.915131 0.924377
0.847076 0.914459 0.916595
0.898590 0.915009 0.915222
0.939758 0.916504 0.934937
0.945801 0.913666 0.937683
0.948608 0.917358 0.947235
0.130768 0.432404 0.827728
0.140564 0.430359 0.839386
0.161133 0.429535 0.859772
0.192413 0.415192 0.891052
0.229340 0.372955 0.891113
0.258606 0.263916 0.855835
0.511108 0.217621 0.897278
0.611053 0.208710 0.894470
0.143707 0.479584 0.830811
0.152832 0.477814 0.841675
0.171844 0.471191 0.864563
0.200775 0.456177 0.900818
0.243256 0.424103 0.911621
0.259216 0.281799 0.875153
0.513062 0.217957 0.899780
0.612335 0.207336 0.894592
0.170959 0.568268 0.855255
0.177338 0.564880 0.856812
0.195984 0.560333 0.875519
0.221252 0.552704 0.910339
0.259460 0.531738 0.948120
0.317413 0.478699 0.963531
0.509308 0.217804 0.897522
0.613403 0.207581 0.893768
0.222351 0.680389 0.868011
0.227509 0.680573 0.873566
0.238678 0.679321 0.891815
0.249939 0.680389 0.929291
0.277008 0.667267 0.974396
0.453552 0.589172 0.949707
0.641479 0.472412 0.967804
0.747589 0.459473 0.974915
0.439301 0.702026 0.824066
0.437256 0.699799 0.821899
0.451355 0.705078 0.826935
0.479614 0.716522 0.856812
0.488251 0.720276 0.898895
0.539124 0.705292 0.950470
0.725891 0.632141 0.962891
0.843170 0.611145 0.990295
0.548553 0.758636 0.865173
0.551086 0.757263 0.863281
0.577454 0.757446 0.854462
0.606903 0.760498 0.849701
0.639252 0.766052 0.852417
0.668976 0.779449 0.903625
0.771240 0.760223 0.932831
0.900635 0.739807 0.987152
0.624176 0.829865 0.881653
0.635071 0.828857 0.882324
0.661896 0.834320 0.895630
0.709076 0.836945 0.894287
0.739471 0.840790 0.909515
0.787231 0.834412 0.890411
0.822815 0.842285 0.912933
0.933350 0.840454 0.973572
0.693176 0.886078 0.911530
0.712402 0.893768 0.918762
0.740479 0.894989 0.917480
0.782959 0.897491 0.924896
0.844360 0.900665 0.921936
0.899414 0.907410 0.931396
0.945190 0.911407 0.943390
0.948975 0.917908 0.948090
