assets/Presetpro - Cali Vibes.cube
#Created by: Adobe Photoshop Export Color Lookup Plugin
#Copyright: (C) Copyright 2018 https://www.presetpro.com and Tim Martin
TITLE "Presetpro - Cali Vibes"
#LUT size
LUT_3D_SIZE 32
#data domain
DOMAIN_MIN 0.0 0.0 0.0
DOMAIN_MAX 1.0 1.0 1.0
#LUT data points
0.132629 0.143280 0.147644
0.136292 0.147034 0.151947
0.133392 0.143524 0.147949
0.147919 0.142914 0.154510
0.152802 0.138885 0.157013
0.180786 0.144196 0.139954
0.188660 0.144440 0.143127
0.211487 0.140625 0.157623
0.234802 0.139160 0.145416
0.255676 0.135284 0.159210
0.279480 0.137115 0.162506
0.326691 0.140747 0.144440
0.362274 0.134186 0.138062
0.415100 0.129974 0.126587
0.456909 0.125824 0.127563
0.503967 0.119202 0.148102
0.552795 0.115387 0.129547
0.604095 0.108124 0.115570
0.653503 0.103271 0.110931
0.697723 0.100342 0.106415
0.747437 0.095367 0.101685
0.799500 0.087982 0.092621
0.850861 0.086975 0.088593
0.893341 0.085846 0.083557
0.931244 0.094269 0.088623
0.948273 0.113251 0.107910
0.959076 0.138123 0.132446
0.963654 0.156891 0.138977
0.963837 0.177551 0.129517
0.965332 0.205200 0.146057
0.964996 0.229797 0.143372
0.969147 0.266327 0.151703
0.132507 0.143433 0.147552
0.136292 0.147034 0.151947
0.137146 0.147125 0.152374
0.148468 0.142609 0.154846
0.168854 0.146667 0.153076
0.186005 0.144287 0.154022
0.200134 0.138306 0.150879
0.212433 0.143097 0.144928
0.235443 0.147522 0.138763
0.261475 0.147980 0.145874
0.289612 0.146576 0.154755
0.319305 0.149597 0.140411
0.360535 0.147491 0.132263
0.403595 0.142303 0.128510
0.461975 0.137512 0.126312
0.510864 0.139526 0.130188
0.555328 0.127777 0.130188
0.618225 0.120544 0.122131
0.664124 0.116333 0.117737
0.709137 0.114258 0.116791
0.753326 0.110565 0.107819
0.803497 0.105957 0.101379
0.862457 0.104187 0.099945
0.909821 0.103851 0.095490
0.932983 0.110016 0.100403
0.949707 0.132019 0.111084
0.959442 0.155212 0.114746
0.963593 0.174438 0.124603
0.966339 0.196198 0.122742
0.967529 0.224670 0.128937
0.968445 0.245483 0.139374
0.969513 0.275635 0.140045
0.130737 0.151794 0.160004
0.132446 0.151428 0.150299
0.133698 0.151245 0.150146
0.157257 0.150299 0.152252
0.168243 0.147552 0.152710
0.179382 0.151917 0.157745
0.189667 0.152679 0.147888
0.214783 0.156555 0.152466
0.230347 0.157654 0.139252
0.249817 0.161987 0.139923
0.284454 0.158173 0.145325
0.321106 0.160217 0.139252
0.359680 0.157196 0.127197
0.399933 0.160980 0.119019
0.458527 0.149017 0.125031
0.502777 0.149628 0.127716
0.557251 0.143616 0.129852
0.607025 0.147491 0.120697
0.661804 0.131653 0.121704
0.711731 0.135193 0.117279
0.754822 0.134979 0.108276
0.802795 0.128021 0.101044
0.856781 0.130493 0.092896
0.897888 0.125946 0.086548
0.937225 0.129852 0.088074
0.951996 0.153381 0.100311
0.962341 0.178833 0.094330
0.966675 0.200287 0.076111
0.966217 0.218384 0.092834
0.965729 0.234283 0.108093
0.967743 0.259186 0.118225
0.970032 0.288879 0.126587
0.122620 0.162262 0.146393
0.130066 0.165771 0.149048
0.137360 0.162354 0.137207
0.152283 0.162079 0.143738
0.168335 0.155518 0.160797
0.180969 0.159821 0.151672
0.195160 0.161652 0.146820
0.213196 0.165466 0.139557
0.232849 0.165192 0.128204
0.249390 0.174469 0.132019
0.274261 0.180023 0.133728
0.318970 0.174500 0.138763
0.356506 0.172394 0.128235
0.392609 0.176239 0.119080
0.452972 0.171417 0.121246
0.504974 0.167572 0.122467
0.544891 0.168579 0.120178
0.601349 0.165527 0.117676
0.642883 0.168732 0.108246
0.690857 0.167908 0.101685
0.740601 0.167450 0.096375
0.783875 0.169525 0.082581
0.833191 0.166504 0.078705
0.879242 0.166229 0.073730
0.912842 0.173767 0.061127
0.948456 0.186249 0.061646
0.963806 0.202423 0.071381
0.967590 0.218048 0.071625
0.966888 0.233093 0.084442
0.965057 0.251129 0.091705
0.969604 0.273987 0.109680
0.970459 0.299225 0.124786
0.123230 0.174164 0.149628
0.123535 0.174469 0.149048
0.137665 0.170593 0.138763
0.147217 0.173828 0.140808
0.174805 0.171143 0.150024
0.179901 0.168060 0.149994
0.196655 0.172974 0.152710
0.214142 0.175659 0.124084
0.229553 0.181549 0.140808
0.249390 0.180023 0.125946
0.273376 0.190704 0.135437
0.307037 0.191284 0.125427
0.353638 0.197510 0.119812
0.389099 0.198364 0.111206
0.437592 0.194977 0.114075
0.484985 0.195007 0.115906
0.538574 0.193451 0.112518
0.577087 0.199219 0.106781
0.618866 0.200195 0.099640
0.666840 0.206268 0.094055
0.713318 0.204926 0.085083
0.761444 0.202576 0.075012
0.808746 0.208008 0.065735
0.856567 0.201141 0.055786
0.898010 0.203888 0.057587
0.933289 0.214508 0.054504
0.956940 0.233948 0.053925
0.967041 0.239807 0.055817
0.965149 0.259369 0.061310
0.969879 0.278534 0.071960
0.969269 0.291504 0.084137
0.971252 0.317566 0.091949
0.114288 0.192413 0.149933
0.121490 0.196655 0.153412
0.127869 0.189758 0.146240
0.145935 0.186493 0.143524
0.172852 0.189087 0.139130
0.186737 0.187439 0.138580
0.206879 0.182526 0.137939
0.226013 0.188324 0.134125
0.233521 0.195618 0.137573
0.244751 0.199463 0.127930
0.274139 0.206573 0.123230
0.301971 0.209167 0.120209
0.342041 0.214874 0.116028
0.382050 0.220093 0.110840
0.424042 0.223511 0.108887
0.464478 0.227570 0.105865
0.503845 0.239868 0.099670
0.549500 0.239502 0.097504
0.592529 0.240875 0.086121
0.646881 0.245880 0.079285
0.703430 0.239288 0.071198
0.744354 0.248322 0.059174
0.784149 0.250824 0.052887
0.831757 0.248444 0.047729
0.872070 0.254028 0.047852
0.910736 0.254913 0.050201
0.938202 0.269501 0.055054
0.947174 0.277435 0.053619
0.956268 0.289703 0.062988
0.951752 0.311981 0.065582
0.966919 0.319641 0.076508
0.965546 0.340057 0.082611
0.111694 0.213623 0.159729
0.117096 0.211609 0.155853
0.128052 0.208282 0.152771
0.142334 0.204407 0.148254
0.163879 0.210388 0.148468
0.193451 0.206116 0.138916
0.220337 0.205780 0.131775
0.238953 0.202332 0.128082
0.253265 0.211823 0.133881
0.270538 0.214844 0.128754
0.285095 0.222900 0.129120
0.301208 0.230438 0.120972
0.338074 0.239624 0.116791
0.366058 0.246948 0.111969
0.409393 0.252594 0.105927
0.448120 0.262512 0.100464
0.486969 0.266785 0.096161
0.536682 0.272369 0.086548
0.584625 0.274414 0.079163
0.627319 0.281677 0.071228
0.686432 0.277161 0.061981
0.721893 0.285553 0.050995
0.771912 0.282867 0.049561
0.813965 0.284607 0.046387
0.850708 0.290558 0.046997
0.881256 0.297028 0.047119
0.914246 0.307037 0.051056
0.942078 0.302795 0.056610
0.939728 0.326141 0.061615
0.942871 0.336304 0.067749
0.954346 0.347565 0.075745
0.956665 0.365875 0.084900
0.100403 0.237305 0.177124
0.106049 0.235321 0.175781
0.111481 0.230865 0.168030
0.127960 0.232819 0.168121
0.146210 0.234985 0.151917
0.182098 0.234955 0.148560
0.215790 0.233795 0.140961
0.250214 0.234894 0.139160
0.278839 0.233826 0.137207
0.298676 0.237366 0.128204
0.315613 0.245941 0.124542
0.332825 0.247986 0.120026
0.350494 0.255402 0.111969
0.376099 0.263306 0.106689
0.403473 0.271301 0.103821
0.441345 0.285248 0.099640
0.488647 0.292938 0.091461
0.533508 0.297760 0.082123
0.573975 0.306549 0.071350
0.616180 0.311859 0.065735
0.666534 0.310913 0.053162
0.715851 0.318085 0.044708
0.754364 0.321594 0.040710
0.791168 0.324127 0.038483
0.833221 0.329224 0.043793
0.867096 0.339203 0.044861
0.900391 0.346619 0.049530
0.915985 0.353149 0.050049
0.925323 0.359589 0.057495
0.932556 0.371826 0.067169
0.934479 0.383545 0.074646
0.939026 0.398621 0.084625
0.077576 0.261536 0.177216
0.086761 0.264435 0.175385
0.100006 0.264191 0.177429
0.111725 0.266205 0.176880
0.127441 0.268707 0.170654
0.157654 0.267334 0.160187
0.204285 0.266785 0.145355
0.256348 0.268066 0.134308
0.294281 0.277710 0.138672
0.318298 0.268372 0.138275
0.352753 0.270294 0.119476
0.370697 0.281219 0.111023
0.392670 0.285675 0.109100
0.405670 0.293854 0.108093
0.424347 0.295441 0.102661
0.444763 0.303070 0.095123
0.481598 0.310944 0.085907
0.528870 0.320984 0.080688
0.571991 0.332886 0.070251
0.615356 0.336395 0.055176
0.659302 0.340973 0.048553
0.705963 0.344513 0.038849
0.745544 0.350128 0.035400
0.779327 0.357941 0.033936
0.813995 0.360138 0.036530
0.847870 0.366394 0.037994
0.886230 0.373779 0.043640
0.911652 0.382599 0.047791
0.910858 0.389130 0.052582
0.921173 0.398529 0.061310
0.928619 0.411285 0.071991
0.934021 0.427032 0.082916
0.033905 0.287567 0.180634
0.042572 0.292938 0.181091
0.058319 0.296631 0.178619
0.082581 0.306793 0.177429
0.106018 0.307648 0.185730
0.123322 0.313049 0.170593
0.180237 0.317505 0.158295
0.241760 0.310211 0.136902
0.292969 0.313812 0.130402
0.346100 0.323730 0.135773
0.376678 0.310394 0.122803
0.412628 0.320007 0.115112
0.429565 0.324585 0.106903
0.456085 0.328674 0.097900
0.470032 0.331512 0.094788
0.490906 0.335205 0.088440
0.503113 0.335266 0.083374
0.528107 0.344543 0.075531
0.574829 0.351929 0.064514
0.618439 0.358093 0.049866
0.659485 0.370026 0.038879
0.702667 0.370361 0.028717
0.742584 0.376801 0.026306
0.780182 0.383118 0.026154
0.813477 0.389923 0.026520
0.848999 0.398987 0.029388
0.884216 0.405945 0.035950
0.905212 0.410645 0.039978
0.919495 0.418182 0.052917
0.922394 0.427399 0.061066
0.927277 0.440796 0.067596
0.926849 0.451965 0.079681
0.027435 0.345917 0.178314
0.026794 0.347107 0.190765
0.028320 0.342102 0.185852
0.032318 0.334167 0.192505
0.062103 0.346649 0.188080
0.095764 0.356567 0.184784
0.129211 0.365936 0.165619
0.207123 0.365295 0.144897
0.297516 0.360168 0.126282
0.344330 0.369324 0.117798
0.413940 0.376923 0.103119
0.443970 0.362579 0.108673
0.491669 0.366852 0.100433
0.517059 0.367950 0.091919
0.534607 0.372192 0.081818
0.545074 0.373322 0.077393
0.561920 0.376099 0.070251
0.571930 0.374146 0.066803
0.591370 0.377045 0.060333
0.621307 0.379150 0.046936
0.661896 0.388214 0.033081
0.710938 0.395233 0.019501
0.742157 0.401550 0.017426
0.785095 0.409698 0.016510
0.814087 0.415833 0.017090
0.847565 0.423218 0.018646
0.878296 0.433411 0.022919
0.905975 0.441589 0.032684
0.917175 0.449371 0.043732
0.924377 0.457184 0.054962
0.928986 0.469482 0.067810
0.932037 0.482269 0.078400
0.012604 0.409180 0.167511
0.013062 0.416840 0.175812
0.012573 0.407349 0.180176
0.012878 0.404846 0.177124
0.015930 0.397156 0.198181
0.036407 0.394562 0.181671
0.089783 0.408875 0.191528
0.143036 0.427612 0.165924
0.256165 0.422058 0.133484
0.337769 0.417847 0.103577
0.414886 0.427368 0.098755
0.486847 0.431396 0.096588
0.522308 0.413422 0.092316
0.581421 0.425049 0.084106
0.599487 0.419861 0.075012
0.616638 0.423676 0.066956
0.630249 0.414551 0.060974
0.638733 0.415558 0.054962
0.650635 0.416077 0.044800
0.661713 0.412842 0.034943
0.673340 0.411987 0.027252
0.713348 0.416565 0.017517
0.749390 0.425995 0.016815
0.787354 0.436920 0.017212
0.822144 0.441467 0.017731
0.855713 0.449188 0.018066
0.885651 0.459717 0.018677
0.906281 0.466614 0.019073
0.919983 0.477631 0.036438
0.925598 0.484497 0.050079
0.928040 0.490295 0.063171
0.936646 0.509949 0.077728
0.011078 0.467804 0.181427
0.011017 0.467804 0.184845
0.010925 0.461212 0.180847
0.010895 0.457336 0.188477
0.011078 0.455627 0.187378
0.011139 0.450012 0.202759
0.018402 0.453430 0.209808
0.088074 0.465515 0.197083
0.198547 0.471344 0.151093
0.317505 0.469788 0.112549
0.406891 0.469086 0.101349
0.484161 0.480957 0.089386
0.559601 0.492401 0.086761
0.600403 0.470154 0.085175
0.657135 0.468872 0.085815
0.681519 0.467224 0.064667
0.695251 0.464874 0.057526
0.707367 0.460083 0.049347
0.710236 0.457550 0.042694
0.718445 0.453461 0.035980
0.726135 0.449402 0.028595
0.733368 0.443970 0.019623
0.753082 0.448029 0.017303
0.788422 0.457275 0.017822
0.821533 0.462646 0.018127
0.853912 0.472443 0.018646
0.886627 0.482300 0.019165
0.903473 0.492950 0.019531
0.920166 0.500854 0.021210
0.925568 0.507019 0.037262
0.933258 0.520355 0.058105
0.936798 0.531006 0.072968
0.010315 0.530945 0.180328
0.010223 0.525574 0.185699
0.010162 0.524048 0.186981
0.010071 0.520325 0.191986
0.010559 0.520020 0.197662
0.010223 0.512543 0.200745
0.009979 0.504883 0.206390
0.014496 0.509033 0.213440
0.114868 0.528015 0.193207
0.271271 0.525238 0.134796
0.388306 0.528137 0.093292
0.483734 0.526794 0.093140
0.564972 0.536835 0.082764
0.645569 0.540771 0.094696
0.686615 0.525299 0.092712
0.744904 0.521942 0.098114
0.768829 0.517700 0.076752
0.769501 0.512268 0.069153
0.773956 0.506012 0.058105
0.783875 0.500610 0.051544
0.784027 0.491364 0.041168
0.792908 0.488586 0.030151
0.797302 0.487122 0.019989
0.806305 0.483337 0.018555
0.827454 0.487671 0.018982
0.863770 0.498291 0.019531
0.895386 0.507080 0.019867
0.912842 0.517639 0.020386
0.926239 0.530060 0.020660
0.930450 0.534973 0.027100
0.935944 0.546448 0.052856
0.941071 0.556366 0.068573
0.042206 0.580109 0.187836
0.042297 0.578003 0.187500
0.034760 0.574432 0.186615
0.027588 0.571686 0.193542
0.019775 0.571472 0.205353
0.017212 0.567322 0.207489
0.016205 0.565613 0.215942
0.012878 0.553925 0.224121
0.043976 0.564697 0.237000
0.205292 0.578461 0.172485
0.340851 0.580750 0.134888
0.465057 0.576508 0.105164
0.555267 0.579193 0.110413
0.642822 0.589172 0.101837
0.723053 0.588348 0.117737
0.760284 0.574493 0.127228
0.813843 0.569244 0.143616
0.831848 0.566681 0.117920
0.837128 0.559296 0.087189
0.838135 0.554871 0.075562
0.839386 0.544403 0.065277
0.845001 0.535126 0.055878
0.848206 0.531555 0.043732
0.851959 0.524872 0.031525
0.863617 0.523956 0.021362
0.868988 0.524292 0.020081
0.895294 0.533447 0.020538
0.915070 0.543823 0.020935
0.930511 0.554565 0.021332
0.935272 0.562012 0.022980
0.939240 0.572693 0.043762
0.943634 0.584869 0.063812
0.069946 0.619171 0.201996
0.069275 0.616608 0.202240
0.066101 0.613220 0.205597
0.065002 0.611511 0.205292
0.064789 0.610016 0.210938
0.066345 0.607300 0.214325
0.061584 0.601440 0.221375
0.058838 0.595917 0.226898
0.052826 0.591797 0.230896
0.163391 0.605225 0.240570
0.293213 0.628113 0.161591
0.422729 0.625397 0.152435
0.536865 0.622437 0.130524
0.625763 0.631317 0.153412
0.706451 0.637878 0.159882
0.789001 0.637848 0.165558
0.821289 0.620667 0.182007
0.866425 0.613678 0.202576
0.881653 0.608276 0.196381
0.892059 0.603760 0.132629
0.893097 0.598480 0.098083
0.893982 0.593597 0.086884
0.897888 0.586029 0.077301
0.897095 0.574036 0.066315
0.900726 0.572205 0.053986
0.907257 0.568665 0.039093
0.910980 0.570099 0.024292
0.921204 0.574799 0.023132
0.936981 0.586914 0.022339
0.943604 0.595795 0.031097
0.945435 0.600952 0.044128
0.949738 0.614319 0.059906
0.089081 0.648285 0.234741
0.087860 0.645050 0.232880
0.085175 0.644348 0.236725
0.084625 0.642761 0.238159
0.086761 0.640259 0.240997
0.085938 0.639252 0.239563
0.082306 0.631409 0.238342
0.083740 0.629761 0.250031
0.079437 0.624451 0.248260
0.121826 0.628845 0.252441
0.250336 0.651428 0.240875
0.369507 0.668671 0.191528
0.494965 0.662170 0.190186
0.600372 0.663483 0.180969
0.690582 0.669800 0.187164
0.761810 0.671051 0.202576
0.834961 0.680725 0.213867
0.863617 0.658844 0.225189
0.893127 0.654144 0.260529
0.910065 0.650665 0.260254
0.915222 0.643341 0.218201
0.922485 0.638123 0.178009
0.926453 0.632935 0.124603
0.932129 0.630157 0.100159
0.932312 0.621185 0.086670
0.932007 0.616455 0.074860
0.936554 0.616943 0.062408
0.939819 0.616333 0.055695
0.945038 0.610931 0.038605
0.948334 0.616272 0.036896
0.952209 0.626160 0.047241
0.953918 0.632050 0.059875
0.103271 0.686066 0.290283
0.104675 0.683502 0.290710
0.104645 0.683533 0.290710
0.102997 0.680176 0.287903
0.100372 0.676331 0.285370
0.100647 0.676666 0.285919
0.100311 0.669891 0.296112
0.097900 0.668365 0.290253
0.097412 0.663818 0.301880
0.116638 0.662537 0.289001
0.231873 0.680756 0.315308
0.338013 0.701202 0.268677
0.445831 0.707367 0.232513
0.570862 0.701813 0.222565
0.663574 0.697784 0.235107
0.749603 0.703400 0.244659
0.812836 0.705566 0.263489
0.872162 0.717133 0.280487
0.890472 0.706482 0.301605
0.909973 0.695618 0.336029
0.922974 0.695740 0.339081
0.931244 0.687958 0.299225
0.937439 0.678986 0.257141
0.944336 0.676086 0.227509
0.949677 0.668030 0.177002
0.959473 0.671204 0.122955
0.965912 0.666565 0.100372
0.966156 0.660950 0.095245
0.962646 0.662262 0.082916
0.959991 0.661438 0.073822
0.958618 0.660217 0.064941
0.962433 0.668549 0.071533
0.115631 0.714874 0.346283
0.114380 0.713196 0.344421
0.115326 0.713104 0.344757
0.112915 0.709320 0.341919
0.114319 0.708160 0.341064
0.111267 0.704620 0.342377
0.110107 0.701935 0.345459
0.110077 0.699493 0.347992
0.109894 0.695892 0.356323
0.126892 0.696320 0.355438
0.242676 0.711884 0.369720
0.321655 0.723450 0.350555
0.414307 0.749329 0.288116
0.526703 0.743469 0.288818
0.635742 0.736420 0.277924
0.720886 0.735840 0.287842
0.792755 0.735443 0.305756
0.858887 0.743134 0.322693
0.897491 0.755585 0.352814
0.911713 0.745056 0.372040
0.925781 0.734344 0.394196
0.938354 0.735199 0.408966
0.944153 0.727356 0.383392
0.949738 0.722351 0.339630
0.957977 0.715546 0.307495
0.961945 0.712463 0.269379
0.966736 0.703644 0.222626
0.969177 0.698364 0.188293
0.971924 0.696472 0.150299
0.973785 0.694641 0.128265
0.976105 0.698120 0.101501
0.973053 0.697266 0.094910
0.123535 0.742065 0.399567
0.125031 0.743530 0.401276
0.125031 0.743530 0.401276
0.124634 0.740692 0.399872
0.122589 0.735291 0.399658
0.124207 0.735229 0.402466
0.120667 0.732117 0.397858
0.120697 0.730743 0.399445
0.115662 0.725403 0.406189
0.156860 0.735535 0.418030
0.262177 0.750275 0.426178
0.336487 0.753326 0.406372
0.412201 0.765137 0.374451
0.498566 0.776306 0.339722
0.614807 0.771881 0.333923
0.703064 0.765167 0.337891
0.776215 0.767365 0.350128
0.835114 0.774384 0.369690
0.882385 0.775330 0.392792
0.915039 0.791748 0.418640
0.924896 0.778168 0.424744
0.936676 0.768860 0.455017
0.949829 0.770386 0.478882
0.958771 0.768585 0.452820
0.961548 0.757568 0.409546
0.966614 0.750183 0.384277
0.966339 0.744354 0.345886
0.966644 0.739166 0.317535
0.968475 0.733032 0.287781
0.971252 0.727875 0.245270
0.972473 0.727844 0.231323
0.973114 0.728455 0.212341
0.123962 0.763214 0.455719
0.124725 0.763123 0.452728
0.125397 0.762573 0.449219
0.125793 0.761078 0.449890
0.124786 0.759949 0.448456
0.123047 0.757935 0.450562
0.119537 0.754303 0.452545
0.122162 0.754608 0.452026
0.131042 0.754608 0.465515
0.213470 0.768005 0.473938
0.297577 0.776459 0.469452
0.359406 0.772552 0.451416
0.414276 0.778442 0.436829
0.491760 0.793182 0.403992
0.570374 0.797058 0.386444
0.673798 0.791473 0.384583
0.759308 0.787689 0.392212
0.817871 0.791443 0.407593
0.871063 0.791931 0.425812
0.899506 0.807678 0.454224
0.928528 0.817200 0.472534
0.940277 0.808655 0.484467
0.947235 0.800568 0.512695
0.961273 0.797699 0.528778
0.963501 0.790771 0.512299
0.964630 0.784515 0.480072
0.967621 0.777954 0.442017
0.968079 0.768768 0.408936
0.968445 0.762665 0.385590
0.969025 0.755951 0.356995
0.970520 0.758026 0.324951
0.970062 0.751678 0.303772
0.132996 0.785736 0.512451
0.134308 0.786163 0.515472
0.130524 0.782379 0.511414
0.133148 0.785034 0.514252
0.130890 0.779877 0.509552
0.130249 0.781036 0.510468
0.129517 0.777618 0.508331
0.147858 0.785980 0.517914
0.226288 0.797699 0.536102
0.295013 0.801331 0.529114
0.349121 0.806061 0.522003
0.393768 0.804413 0.513794
0.445007 0.807343 0.503265
0.498505 0.811005 0.471802
0.565704 0.826019 0.449890
0.642609 0.823669 0.439972
0.738129 0.815521 0.443329
0.802216 0.815308 0.451080
0.851593 0.816803 0.459595
0.893677 0.826050 0.484589
0.917419 0.834015 0.505859
0.940582 0.842407 0.521118
0.952911 0.837830 0.545746
0.960144 0.826172 0.557617
0.970062 0.825623 0.580353
0.971161 0.821777 0.570923
0.969513 0.811737 0.539459
0.966339 0.800781 0.504700
0.969513 0.796051 0.472778
0.970490 0.785553 0.444336
0.971649 0.784119 0.422699
0.971466 0.779083 0.396973
0.141357 0.803833 0.567017
0.141663 0.802002 0.565979
0.140137 0.804413 0.560486
0.140045 0.804016 0.558258
0.142578 0.799744 0.558380
0.178864 0.813385 0.570404
0.216217 0.818329 0.580444
0.279633 0.827301 0.581573
0.324677 0.830566 0.579895
0.363892 0.831116 0.573822
0.409088 0.828674 0.575867
0.440186 0.835175 0.562897
0.484955 0.830719 0.554565
0.519592 0.832031 0.539825
0.572266 0.836182 0.514801
0.649048 0.843933 0.488342
0.718628 0.841736 0.495392
0.785767 0.842285 0.498596
0.844147 0.839569 0.504761
0.882477 0.843170 0.514374
0.906982 0.850159 0.535583
0.935883 0.863312 0.563568
0.952271 0.866730 0.573669
0.964508 0.859283 0.588898
0.969910 0.851196 0.608368
0.974762 0.850311 0.634186
0.973083 0.841736 0.622223
0.970856 0.834229 0.587585
0.972015 0.825500 0.562683
0.971649 0.819031 0.537842
0.970947 0.814270 0.510498
0.968842 0.810974 0.487213
0.241882 0.848633 0.632812
0.254303 0.849640 0.630981
0.265900 0.845154 0.629730
0.281372 0.846985 0.634247
0.296021 0.848450 0.634644
0.320251 0.847595 0.630188
0.346985 0.854980 0.636719
0.373932 0.854431 0.630951
0.411285 0.855438 0.633972
0.435486 0.853119 0.623718
0.466156 0.854645 0.621277
0.495026 0.854401 0.605103
0.525848 0.858582 0.602722
0.564209 0.855652 0.588989
0.592163 0.854462 0.572052
0.645325 0.862610 0.560852
0.705780 0.866211 0.540771
0.783112 0.861694 0.540070
0.839630 0.856995 0.547241
0.874298 0.861145 0.556183
0.900269 0.866272 0.578430
0.927765 0.874634 0.596375
0.946594 0.881683 0.615448
0.964203 0.887207 0.628448
0.971954 0.881897 0.632874
0.979065 0.872528 0.653717
0.978455 0.867828 0.671631
0.976257 0.859161 0.664917
0.975983 0.852142 0.634949
0.975800 0.845490 0.606964
0.975342 0.840881 0.590179
0.972168 0.830933 0.560699
0.358093 0.872101 0.677704
0.364166 0.873474 0.675903
0.367493 0.873474 0.675781
0.377655 0.874664 0.674469
0.388062 0.868896 0.670898
0.401337 0.868530 0.663086
0.417816 0.876007 0.662231
0.441956 0.879242 0.666687
0.464355 0.875183 0.663696
0.483978 0.872040 0.662262
0.512756 0.876709 0.654907
0.534180 0.874725 0.641815
0.559631 0.873596 0.643433
0.592865 0.877838 0.633575
0.613464 0.874176 0.623138
0.646057 0.876007 0.605316
0.697021 0.884186 0.591125
0.754486 0.887512 0.575012
0.821777 0.877411 0.578003
0.865509 0.877014 0.585785
0.898438 0.881317 0.607788
0.917755 0.885529 0.613770
0.938202 0.890839 0.632629
0.956238 0.899231 0.649475
0.973999 0.907288 0.675995
0.978394 0.899231 0.687683
0.980133 0.886658 0.693817
0.980499 0.877716 0.692200
0.975952 0.867004 0.696381
0.976654 0.861023 0.674011
0.976501 0.855347 0.645966
0.973907 0.842316 0.622162
0.455078 0.898651 0.715271
0.461212 0.896790 0.710968
0.461395 0.899811 0.706665
0.461273 0.899384 0.701019
0.469391 0.894775 0.703796
0.480988 0.891205 0.698761
0.498962 0.895050 0.706451
0.510284 0.894623 0.703369
0.521851 0.894897 0.697083
0.539398 0.895691 0.696228
0.560486 0.897095 0.699585
0.586945 0.893738 0.685577
0.604156 0.894104 0.682587
0.628143 0.893738 0.671661
0.648438 0.892822 0.667053
0.667877 0.895599 0.653503
0.712860 0.897522 0.641235
0.755829 0.900146 0.627319
0.800995 0.899902 0.623322
0.849121 0.895782 0.629242
0.884247 0.898590 0.634888
0.913269 0.896240 0.648926
0.932678 0.906708 0.667419
0.952423 0.909912 0.675476
0.966675 0.919098 0.695526
0.973907 0.919098 0.717468
0.978180 0.909088 0.722076
0.980621 0.900238 0.727783
0.980347 0.885071 0.720276
0.975342 0.870880 0.721222
0.974609 0.868652 0.698059
0.977051 0.863800 0.683990
0.529449 0.914642 0.747894
0.526184 0.912720 0.744751
0.531036 0.912598 0.743958
0.533539 0.912994 0.738586
0.539795 0.912323 0.741333
0.546448 0.910858 0.745819
0.557648 0.914459 0.740692
0.567261 0.915741 0.739746
0.581726 0.914825 0.732849
0.593628 0.913300 0.738464
0.609558 0.913269 0.728149
0.626434 0.912842 0.721802
0.645905 0.911621 0.714966
0.659485 0.912567 0.713287
0.680511 0.911194 0.711975
0.700134 0.909821 0.697235
0.725311 0.911804 0.674622
0.758972 0.918671 0.669800
0.797974 0.919373 0.664520
0.839783 0.914398 0.663330
0.878357 0.912811 0.670471
0.912170 0.909576 0.678009
0.926758 0.910889 0.685242
0.946777 0.916870 0.698120
0.952148 0.915466 0.703094
0.968109 0.915741 0.718323
0.974060 0.915466 0.744080
0.979034 0.916626 0.760773
0.979309 0.903870 0.755676
0.980194 0.889069 0.747009
0.977936 0.879303 0.743042
0.975952 0.869049 0.724152
0.590698 0.922485 0.777008
0.594818 0.923523 0.770874
0.594574 0.923309 0.770111
0.598328 0.927246 0.773499
0.604279 0.918396 0.762115
0.606262 0.917603 0.761230
0.616821 0.923431 0.767120
0.624603 0.919983 0.765900
0.624268 0.923370 0.760193
0.641266 0.920319 0.758179
0.660522 0.919586 0.756927
0.672058 0.925446 0.760925
0.681366 0.925873 0.749207
0.691833 0.922974 0.738708
0.704254 0.924255 0.735260
