assets/Presetpro - Fast Film.cube
#Created by: Adobe Photoshop Export Color Lookup Plugin
#Copyright: (C) Copyright 2022 Tim Martin and Presetpro.com
TITLE "Presetpro - Fast Film.jpg"
#LUT size
LUT_3D_SIZE 32
#data domain
DOMAIN_MIN 0.0 0.0 0.0
DOMAIN_MAX 1.0 1.0 1.0
#LUT data points
0.000000 0.000000 0.000000
0.012146 0.003784 0.007599
0.036041 0.004181 0.003937
0.052124 0.007843 0.000366
0.067688 0.012268 0.000519
0.091461 0.020233 0.011139
0.108154 0.024292 0.011017
0.129028 0.027466 0.011780
0.154083 0.028473 0.015686
0.181519 0.034149 0.009491
0.210236 0.028717 0.010376
0.240845 0.035309 0.017090
0.276642 0.031372 0.023529
0.314087 0.033661 0.021881
0.348236 0.027832 0.015686
0.395691 0.025543 0.025421
0.421906 0.013794 0.023529
0.467834 0.013519 0.025696
0.497040 0.009491 0.026825
0.540558 0.003937 0.025055
0.575989 0.002533 0.035309
0.612030 0.005310 0.022278
0.650360 0.006714 0.029114
0.687042 0.007843 0.027466
0.721954 0.017853 0.024414
0.761688 0.037689 0.022766
0.796844 0.060852 0.028076
0.833282 0.076904 0.020111
0.872223 0.104370 0.027069
0.905121 0.132568 0.027466
0.936890 0.152679 0.031372
0.968628 0.180389 0.031372
0.000000 0.019623 0.003937
0.015686 0.019745 0.000122
0.036163 0.023895 0.003937
0.055267 0.019745 0.000000
0.075409 0.020630 0.007324
0.098785 0.031128 0.003540
0.112823 0.032135 0.003937
0.134460 0.036163 0.016327
0.157104 0.039337 0.008728
0.185059 0.043396 0.018341
0.218201 0.044525 0.019745
0.248810 0.047180 0.018341
0.280457 0.043396 0.018219
0.319519 0.039337 0.015045
0.356232 0.039337 0.023651
0.393646 0.035553 0.027588
0.420013 0.029602 0.023407
0.465790 0.025818 0.023926
0.503113 0.023773 0.029602
0.541199 0.022125 0.027191
0.576477 0.017334 0.026306
0.616974 0.018463 0.031006
0.653015 0.022522 0.035034
0.686157 0.027710 0.023773
0.723083 0.038574 0.019867
0.761932 0.056793 0.023773
0.797485 0.072876 0.023407
0.836945 0.088928 0.020233
0.864655 0.113342 0.023895
0.916016 0.136627 0.023529
0.944458 0.160522 0.031128
0.972687 0.188232 0.027832
0.000244 0.035797 0.004425
0.008087 0.035553 0.008087
0.024292 0.036041 0.000763
0.051239 0.040100 0.004059
0.068420 0.040466 0.000763
0.099304 0.043274 0.000519
0.115479 0.044891 0.005188
0.138397 0.050354 0.006317
0.164825 0.044891 0.005951
0.193024 0.055145 0.018463
0.219971 0.050079 0.012268
0.250580 0.059082 0.023010
0.288147 0.053894 0.013519
0.320526 0.049194 0.018463
0.359009 0.050995 0.018097
0.395813 0.047577 0.023651
0.431641 0.043884 0.021271
0.469452 0.039978 0.030853
0.502106 0.039734 0.017334
0.539276 0.039978 0.025696
0.577362 0.034027 0.023773
0.612152 0.040863 0.023285
0.654266 0.043884 0.030853
0.689056 0.046814 0.035919
0.727539 0.054779 0.022644
0.764832 0.070068 0.022522
0.801392 0.084900 0.023285
0.837708 0.101471 0.023010
0.876282 0.128540 0.025421
0.909058 0.148773 0.020355
0.944336 0.168884 0.023895
0.972534 0.192413 0.030853
0.000000 0.052124 0.023529
0.007965 0.051605 0.019989
0.016205 0.055664 0.019745
0.035675 0.059967 0.012512
0.067810 0.064392 0.001526
0.091583 0.068176 0.004303
0.113983 0.063873 0.007477
0.140289 0.063110 0.007324
0.170380 0.060974 0.007843
0.196320 0.067413 0.008606
0.225922 0.064758 0.023163
0.258423 0.068817 0.018585
0.285126 0.067810 0.015930
0.330414 0.065796 0.020874
0.356476 0.068176 0.018585
0.397705 0.067047 0.026184
0.433289 0.065155 0.019989
0.468201 0.062103 0.026062
0.509430 0.054901 0.025055
0.545227 0.061981 0.023529
0.581909 0.058563 0.024536
0.619873 0.060974 0.026062
0.657074 0.066681 0.031372
0.689941 0.068176 0.018463
0.723602 0.083099 0.017334
0.765228 0.093750 0.022400
0.801788 0.105377 0.018982
0.843658 0.117767 0.025818
0.876160 0.136871 0.019226
0.909058 0.161041 0.019623
0.940674 0.176849 0.026306
0.977234 0.200745 0.023529
0.003418 0.068176 0.028473
0.007080 0.071594 0.031372
0.015930 0.068420 0.028717
0.024658 0.072998 0.025665
0.058319 0.078033 0.016693
0.087799 0.091705 0.018463
0.120178 0.091217 0.011505
0.147736 0.084381 0.014679
0.176575 0.084869 0.013275
0.197723 0.081726 0.015167
0.235931 0.087280 0.021271
0.261963 0.087280 0.018219
0.297760 0.084869 0.019104
0.334198 0.088409 0.017822
0.361023 0.083862 0.020355
0.400757 0.087158 0.022522
0.440491 0.083374 0.018097
0.475800 0.083252 0.022278
0.505890 0.083374 0.025177
0.546875 0.085785 0.023529
0.582947 0.087799 0.020386
0.619385 0.088684 0.029999
0.656555 0.087158 0.025940
0.698822 0.092712 0.023529
0.730682 0.106506 0.019623
0.772675 0.110565 0.019104
0.810883 0.125854 0.028076
0.845551 0.138275 0.022522
0.879059 0.153687 0.021637
0.912720 0.172791 0.015167
0.947754 0.193298 0.022766
0.973572 0.216705 0.022522
0.000000 0.088165 0.040466
0.003937 0.091461 0.043640
0.008087 0.088562 0.040466
0.019989 0.092468 0.036926
0.032898 0.099792 0.028473
0.065277 0.111053 0.030121
0.108673 0.116364 0.019989
0.146484 0.121063 0.009094
0.179871 0.116241 0.012787
0.210754 0.114624 0.012390
0.243622 0.103851 0.015686
0.273499 0.110321 0.018860
0.302338 0.108673 0.020111
0.338257 0.106140 0.016449
0.374817 0.108917 0.018982
0.406952 0.109802 0.015686
0.451233 0.107788 0.021515
0.486420 0.102325 0.017212
0.520569 0.104492 0.019623
0.555878 0.110168 0.018982
0.591797 0.111053 0.020355
0.627594 0.112335 0.018341
0.660980 0.119049 0.018982
0.700195 0.120178 0.013397
0.730682 0.127777 0.016571
0.770142 0.138397 0.015686
0.810638 0.149658 0.012390
0.846161 0.161682 0.008850
0.880219 0.177216 0.013794
0.912964 0.193787 0.010498
0.948151 0.216583 0.021271
0.977112 0.233276 0.013672
0.003174 0.108917 0.056427
0.003174 0.108917 0.056427
0.000000 0.112335 0.053009
0.007080 0.115997 0.055664
0.026184 0.117249 0.053650
0.048828 0.124603 0.042755
0.079956 0.135620 0.026703
0.131927 0.145203 0.021118
0.174835 0.153046 0.008087
0.205292 0.148132 0.007843
0.244904 0.142944 0.010254
0.280304 0.134979 0.015045
0.321289 0.132446 0.018097
0.351776 0.133331 0.018097
0.386444 0.131683 0.019867
0.416168 0.132446 0.015442
0.455170 0.133209 0.017700
0.490601 0.132446 0.018097
0.524353 0.135620 0.016571
0.561798 0.136353 0.014160
0.595215 0.136353 0.013550
0.630249 0.139526 0.019501
0.668060 0.143066 0.016815
0.702972 0.148132 0.006836
0.738281 0.156616 0.009613
0.778870 0.164703 0.008606
0.809998 0.172058 0.011017
0.845795 0.182159 0.007324
0.878418 0.201141 0.008362
0.912720 0.214050 0.009247
0.951538 0.230347 0.007324
0.980377 0.250092 0.014160
0.003052 0.135986 0.068420
0.000000 0.135986 0.068420
0.000000 0.135986 0.068420
0.003418 0.136353 0.060974
0.010620 0.145203 0.065796
0.027588 0.145599 0.055145
0.070709 0.153320 0.049347
0.107635 0.162170 0.039215
0.166229 0.177094 0.016571
0.212402 0.184814 0.005585
0.243744 0.182678 0.004303
0.282715 0.176971 0.010010
0.320404 0.171539 0.005432
0.359497 0.161285 0.010132
0.392273 0.160400 0.010895
0.435913 0.158630 0.003784
0.460846 0.163422 0.012787
0.498810 0.160400 0.006958
0.533722 0.157593 0.010254
0.571045 0.159760 0.006958
0.604065 0.168243 0.010101
0.638977 0.168610 0.008728
0.670593 0.171021 0.009735
0.706909 0.178101 0.005066
0.742432 0.183929 0.003937
0.781158 0.191772 0.000000
0.815308 0.204681 0.002411
0.852386 0.211761 0.000000
0.886902 0.221893 0.005707
0.919678 0.237701 0.001129
0.945618 0.253510 0.001770
0.978241 0.274109 0.002655
0.001007 0.164825 0.077545
0.000885 0.167725 0.080444
0.000000 0.164825 0.077545
0.000000 0.164825 0.077545
0.000519 0.168732 0.080963
0.005188 0.176208 0.068695
0.036804 0.180756 0.060089
0.084503 0.191254 0.054016
0.132446 0.199097 0.034393
0.184570 0.208344 0.015564
0.240967 0.224670 0.003937
0.286774 0.218323 0.009125
0.330048 0.211884 0.008240
0.366089 0.204407 0.000000
0.402008 0.200378 0.002777
0.435913 0.188354 0.001770
0.467072 0.190247 0.002899
0.510437 0.189362 0.000000
0.544464 0.192261 0.001282
0.581268 0.189362 0.002014
0.610901 0.189362 0.001526
0.648346 0.193665 0.001648
0.679962 0.200745 0.000000
0.713593 0.206940 0.001007
0.750427 0.211884 0.005066
0.786469 0.216064 0.005066
0.820740 0.229218 0.001007
0.851990 0.238831 0.000000
0.885376 0.247192 0.002014
0.917908 0.258698 0.000244
0.954468 0.274628 0.000000
0.979492 0.293213 0.004944
0.000000 0.192780 0.088562
0.001129 0.191650 0.088562
0.000885 0.189117 0.085754
0.000000 0.195953 0.088928
0.005066 0.194305 0.091827
0.000000 0.204163 0.091827
0.012146 0.208099 0.081848
0.062622 0.212128 0.073120
0.100830 0.225159 0.060089
0.163055 0.233124 0.047577
0.215057 0.247925 0.019104
0.289795 0.257812 0.002258
0.331543 0.252747 0.000000
0.368500 0.252228 0.000000
0.403778 0.244263 0.000000
0.440857 0.237305 0.000000
0.475922 0.230347 0.000000
0.515900 0.224152 0.000000
0.549805 0.220245 0.001129
0.589630 0.220245 0.000000
0.618835 0.224152 0.000000
0.657684 0.225677 0.004944
0.688446 0.229736 0.000000
0.723724 0.235931 0.002899
0.754822 0.236694 0.002777
0.795319 0.247681 0.001129
0.826050 0.256653 0.001129
0.861877 0.266296 0.002289
0.893372 0.278687 0.004669
0.927002 0.286407 0.003937
0.955109 0.303864 0.002899
0.988220 0.321045 0.003937
0.000000 0.228577 0.100555
0.003937 0.229980 0.104492
0.001251 0.227325 0.101837
0.001648 0.218964 0.104095
0.000000 0.225159 0.113220
0.000000 0.228577 0.101196
0.000763 0.236420 0.092468
0.025421 0.244263 0.090576
0.087280 0.252106 0.077789
0.141693 0.257050 0.066772
0.191895 0.270447 0.043274
0.253113 0.283600 0.016693
0.329010 0.300446 0.000000
0.368988 0.297394 0.000000
0.406189 0.292084 0.003021
0.452606 0.285370 0.000000
0.486542 0.271576 0.000000
0.527008 0.265503 0.000000
0.561920 0.259186 0.002533
0.603058 0.253265 0.001129
0.624298 0.256042 0.002655
0.661621 0.257416 0.000000
0.698669 0.261597 0.001251
0.734467 0.269440 0.000000
0.760284 0.271332 0.001770
0.794312 0.278168 0.000763
0.827576 0.288177 0.000000
0.859833 0.294739 0.002167
0.892609 0.302704 0.002655
0.930664 0.314606 0.001251
0.961548 0.329041 0.000000
0.989624 0.339783 0.000000
0.001404 0.257935 0.117645
0.003937 0.259064 0.120422
0.001404 0.256531 0.120422
0.001404 0.256531 0.120422
0.001404 0.259064 0.124359
0.000763 0.259705 0.119293
0.000000 0.265137 0.114594
0.005066 0.270569 0.102722
0.056671 0.280060 0.096130
0.114990 0.287415 0.085388
0.170776 0.296875 0.069946
0.227692 0.302460 0.052368
0.297516 0.316986 0.020752
0.365570 0.339630 0.006836
0.411987 0.341278 0.000000
0.455139 0.331940 0.002533
0.487946 0.325989 0.001892
0.530182 0.317139 0.000000
0.567108 0.311920 0.001404
0.602142 0.302460 0.000000
0.635284 0.293457 0.003937
0.667053 0.293213 0.000000
0.702972 0.296021 0.000000
0.735992 0.298157 0.001526
0.772064 0.302216 0.003052
0.807587 0.308899 0.004059
0.835541 0.318542 0.001404
0.868561 0.323212 0.004547
0.894989 0.334595 0.000000
0.933472 0.345093 0.000000
0.963043 0.355469 0.000000
0.991028 0.368866 0.002533
0.003937 0.293854 0.138763
0.002411 0.292328 0.137268
0.002411 0.292328 0.137268
0.001129 0.290680 0.136749
0.000519 0.294250 0.132446
0.003937 0.286011 0.137878
0.004822 0.289917 0.141052
0.000885 0.300446 0.133087
0.030365 0.309540 0.120178
0.093353 0.314606 0.113220
0.149536 0.328888 0.094238
0.207336 0.333954 0.078918
0.262482 0.345459 0.051605
0.324829 0.356720 0.016693
0.399841 0.378235 0.000000
0.460449 0.382019 0.000000
0.494385 0.377197 0.000519
0.538269 0.369232 0.000000
0.570648 0.358124 0.001526
0.607849 0.357208 0.001526
0.644928 0.345337 0.003418
0.677551 0.336090 0.002289
0.714630 0.332184 0.002655
0.750305 0.331055 0.000000
0.781403 0.333069 0.000885
0.813293 0.342560 0.000000
0.842773 0.348999 0.003296
0.875916 0.356079 0.000000
0.903992 0.366455 0.004059
0.939026 0.374817 0.004181
0.969635 0.384674 0.000000
0.995178 0.394287 0.002411
0.003296 0.324219 0.146088
0.000000 0.327484 0.146088
0.004547 0.324951 0.151154
0.000000 0.323822 0.153564
0.000000 0.324219 0.149017
0.007843 0.321930 0.151917
0.000000 0.324097 0.151550
0.000000 0.332947 0.139648
0.006073 0.341156 0.137634
0.069183 0.343811 0.136627
0.128021 0.355591 0.118774
0.182922 0.363190 0.102203
0.239349 0.376709 0.082214
0.296753 0.385315 0.058838
0.363922 0.392120 0.016937
0.437195 0.413147 0.000244
0.502106 0.421234 0.005829
0.543091 0.417908 0.005035
0.577118 0.410217 0.004913
0.615204 0.402008 0.000000
0.649353 0.396454 0.004822
0.683868 0.389221 0.003540
0.718658 0.384033 0.000000
0.755463 0.374298 0.004181
0.785583 0.368103 0.005554
0.820496 0.374420 0.000000
0.852386 0.382416 0.002289
0.881989 0.385956 0.001648
0.912201 0.392792 0.001648
0.939789 0.403015 0.000244
0.969635 0.413269 0.000000
1.000000 0.419983 0.001648
0.003937 0.356079 0.158234
0.003784 0.360535 0.160400
0.000000 0.357849 0.166077
0.000000 0.357849 0.166077
0.003937 0.358246 0.164703
0.004303 0.360016 0.165955
0.000000 0.357849 0.170380
0.004425 0.356079 0.166962
0.000000 0.367096 0.159393
0.042480 0.375061 0.150391
0.111572 0.386078 0.140045
0.163055 0.392761 0.126495
0.222260 0.404419 0.117523
0.280823 0.410980 0.090179
0.342163 0.420990 0.062347
0.405792 0.432617 0.024139
0.485413 0.450714 0.005829
0.546265 0.471191 0.000000
0.578247 0.460938 0.001038
0.619232 0.453735 0.003937
0.655579 0.443756 0.003693
0.690826 0.438049 0.001251
0.724854 0.432373 0.003174
0.755981 0.427917 0.000000
0.791168 0.416779 0.000000
0.826202 0.410614 0.001770
0.856934 0.414032 0.000000
0.884491 0.417938 0.003540
0.916138 0.424530 0.000000
0.945984 0.430603 0.000000
0.977875 0.444275 0.000000
1.000000 0.454132 0.001770
0.000000 0.393768 0.174591
0.000000 0.391876 0.176483
0.003784 0.391876 0.178864
0.003784 0.391876 0.182159
0.000000 0.391876 0.177490
0.000000 0.393768 0.182159
0.003784 0.391876 0.188477
0.003784 0.388092 0.183289
0.001007 0.399719 0.185455
0.022400 0.402893 0.172028
0.089935 0.414642 0.159882
0.153564 0.419342 0.145966
0.208466 0.433746 0.142944
0.265900 0.440582 0.121429
0.314606 0.446655 0.102203
0.376190 0.462463 0.072479
0.442047 0.472229 0.024902
0.517700 0.488678 0.001770
0.583557 0.508911 0.000000
0.631500 0.502563 0.000000
0.657196 0.493713 0.002014
0.700195 0.487122 0.002655
0.736633 0.481201 0.002777
0.762695 0.475128 0.000000
0.792542 0.470947 0.000000
0.825684 0.464386 0.000000
0.861603 0.457153 0.001892
0.897919 0.456909 0.002411
0.922333 0.458038 0.001892
0.955963 0.464111 0.002014
0.982056 0.473999 0.000122
1.000000 0.482086 0.002014
0.000000 0.427704 0.192291
0.000000 0.429626 0.194183
0.005829 0.427704 0.194183
0.007843 0.429749 0.196198
0.000000 0.425323 0.197601
0.001404 0.431000 0.197601
0.000000 0.427704 0.194305
0.002014 0.423798 0.198120
0.000000 0.424805 0.204193
0.006439 0.433777 0.191925
0.075378 0.441498 0.186615
0.137238 0.450623 0.177979
0.187958 0.462372 0.162811
0.246796 0.468567 0.152588
0.302704 0.478577 0.130341
0.358490 0.486542 0.108307
0.415833 0.496399 0.078552
0.477692 0.510193 0.030243
0.551819 0.524628 0.000000
0.626587 0.551453 0.004425
0.668213 0.546875 0.004059
0.702240 0.538788 0.002014
0.732574 0.530945 0.000000
0.768372 0.528931 0.000885
0.796478 0.522980 0.000000
0.829468 0.514130 0.001129
0.865417 0.510834 0.001251
0.897919 0.502991 0.005310
0.925232 0.498810 0.000000
0.954224 0.498688 0.000000
0.983795 0.504242 0.000000
1.000000 0.511963 0.003937
0.000000 0.465271 0.214294
0.000122 0.463531 0.214294
0.002167 0.463531 0.214294
0.001770 0.463135 0.213928
0.000000 0.464661 0.213806
0.000000 0.463531 0.214294
0.000000 0.459991 0.216461
0.000000 0.459991 0.217346
0.003418 0.458466 0.219513
0.000000 0.465393 0.211029
0.061951 0.476532 0.212158
0.128906 0.478821 0.199768
0.179474 0.487915 0.187988
0.232880 0.500336 0.179657
0.286499 0.508820 0.159790
0.338501 0.516144 0.138153
0.400146 0.526520 0.118561
0.461761 0.538025 0.084106
0.519928 0.548798 0.028961
0.579132 0.564728 0.002167
0.666809 0.585480 0.007080
0.704742 0.587250 0.000000
0.739929 0.579895 0.002167
0.773834 0.572937 0.000000
0.800385 0.569794 0.002655
0.834412 0.561951 0.003174
0.868073 0.560181 0.003296
0.897797 0.555756 0.001251
0.925751 0.554871 0.004700
0.963043 0.544739 0.002411
0.990021 0.542969 0.002167
1.000000 0.543732 0.005310
0.000000 0.497681 0.232025
0.000000 0.497681 0.228729
0.001648 0.493744 0.229736
0.003296 0.497284 0.233276
0.000000 0.497162 0.234283
0.003296 0.497040 0.237579
0.001648 0.496033 0.240479
0.000000 0.496796 0.237976
0.004547 0.494385 0.238831
0.003418 0.493744 0.234802
0.050812 0.507416 0.226837
0.125977 0.512207 0.221130
0.172272 0.518799 0.211395
0.225525 0.527405 0.199646
0.277161 0.536377 0.192047
0.330261 0.544739 0.168152
0.385468 0.554474 0.148132
0.444031 0.565735 0.128662
0.497681 0.574463 0.100311
0.560425 0.589752 0.043671
0.617218 0.600647 0.002289
0.688293 0.625183 0.000000
0.742828 0.630005 0.000000
0.776978 0.619232 0.002899
0.800385 0.619232 0.000000
0.836304 0.612793 0.000000
0.868073 0.608124 0.003937
0.896027 0.599640 0.000000
0.928040 0.596344 0.002289
0.957245 0.592041 0.000000
0.987732 0.588501 0.001526
1.000000 0.588501 0.001648
0.003021 0.531189 0.248840
0.001526 0.529694 0.247314
0.000000 0.531189 0.250366
0.000000 0.531189 0.250366
0.004822 0.533600 0.252777
0.001770 0.535370 0.247314
0.002258 0.531952 0.255646
0.001526 0.531189 0.254913
0.002014 0.528290 0.255035
0.002258 0.530823 0.257050
0.052734 0.536377 0.253387
0.118896 0.541931 0.247833
0.171387 0.552307 0.237091
0.221741 0.561798 0.223785
0.270081 0.567627 0.215454
0.321289 0.577637 0.198120
0.371307 0.590149 0.176605
0.428101 0.593079 0.167999
0.484131 0.604950 0.146484
0.536621 0.615967 0.109802
0.596466 0.625427 0.062500
0.650848 0.635071 0.004944
0.724121 0.660980 0.000366
0.780670 0.667328 0.004822
0.811523 0.659088 0.004791
0.844910 0.655182 0.000000
0.872864 0.648834 0.000885
0.902863 0.647339 0.001007
0.929932 0.645813 0.002411
0.954590 0.638458 0.000000
0.987732 0.637085 0.006195
1.000000 0.631653 0.001526
0.001404 0.568390 0.267822
0.001404 0.571045 0.267944
0.000000 0.569519 0.266418
0.001404 0.570923 0.267822
0.006439 0.568390 0.267822
0.007080 0.570282 0.270966
0.000000 0.570282 0.275024
0.000000 0.570282 0.274139
0.003052 0.566986 0.269196
0.003418 0.569519 0.273132
0.064758 0.566986 0.277039
0.123444 0.577606 0.263885
0.174805 0.582794 0.263885
0.221619 0.589142 0.255310
0.266907 0.599762 0.241882
0.316498 0.608612 0.231628
0.363068 0.619507 0.215942
0.420380 0.627594 0.203674
0.470367 0.634033 0.180634
0.523102 0.646332 0.160553
0.577606 0.651886 0.134491
0.635803 0.661224 0.083740
0.688049 0.671997 0.024811
0.753204 0.690338 0.000000
0.809113 0.704254 0.002258
0.842651 0.698944 0.000763
0.873260 0.694244 0.005066
0.903473 0.692230 0.002258
0.929291 0.684631 0.000366
0.959778 0.680725 0.000000
0.983673 0.680603 0.002533
0.998596 0.678192 0.000000
0.000000 0.607971 0.291595
0.000000 0.610626 0.294250
0.000000 0.610901 0.293732
0.000000 0.613281 0.286407
0.001251 0.607605 0.295013
0.002533 0.607361 0.290955
0.000000 0.608734 0.292358
0.000000 0.609375 0.298309
0.000000 0.607086 0.299835
0.010345 0.605835 0.294373
0.083221 0.605438 0.300842
0.137756 0.612030 0.298309
0.180267 0.616058 0.285156
0.225281 0.620758 0.280853
0.270813 0.629364 0.272491
0.320679 0.636810 0.266174
0.365753 0.647949 0.248596
0.415070 0.654541 0.234283
0.468201 0.663513 0.216583
0.517670 0.671600 0.205719
0.565338 0.679718 0.180908
0.615814 0.686401 0.147766
0.675659 0.697296 0.120453
0.721954 0.702362 0.048615
0.786713 0.722473 0.002655
0.840607 0.739288 0.000000
0.874634 0.736115 0.000641
0.907776 0.732208 0.002655
0.927155 0.724365 0.001770
0.955353 0.717773 0.000519
0.984955 0.719299 0.002655
0.997345 0.719177 0.000000
0.003937 0.645294 0.318146
0.003937 0.645294 0.318146
0.000000 0.648071 0.314758
0.001892 0.651642 0.313110
0.000519 0.647583 0.317017
0.003937 0.645294 0.318146
0.000763 0.642120 0.315002
0.002777 0.644165 0.317017
0.002014 0.643402 0.322083
0.040985 0.644165 0.323212
0.118408 0.639740 0.326508
0.160156 0.642517 0.324860
0.201141 0.644043 0.319702
0.238434 0.653137 0.308685
0.275513 0.659332 0.301971
0.319153 0.668823 0.294617
0.369019 0.671997 0.284393
0.415710 0.683868 0.272888
0.456177 0.691864 0.257416
0.506897 0.700958 0.240875
0.551056 0.707794 0.220642
0.604187 0.712982 0.202026
0.657074 0.723724 0.169128
0.700439 0.731689 0.138031
0.755859 0.738800 0.087799
0.820129 0.753845 0.007080
0.878052 0.769775 0.001648
0.911713 0.767487 0.002777
0.929932 0.764465 0.000000
0.959778 0.761292 0.000244
0.986725 0.761932 0.001007
1.000000 0.759033 0.000000
0.000000 0.682220 0.342072
0.001007 0.681213 0.342072
0.001251 0.681213 0.341553
0.006836 0.684143 0.339142
0.001526 0.681213 0.346893
0.003937 0.681213 0.336243
0.001007 0.681213 0.345612
0.002899 0.677307 0.348663
0.034393 0.684143 0.350800
0.101471 0.678955 0.344727
0.151672 0.677307 0.348267
0.190247 0.678833 0.353333
0.224548 0.681213 0.345245
0.262360 0.687164 0.344360
0.292480 0.692841 0.338531
0.332062 0.703735 0.324493
0.370789 0.706909 0.322327
0.415436 0.713867 0.305389
0.455536 0.724731 0.293365
0.500336 0.731201 0.278809
0.545624 0.735748 0.266663
0.596588 0.744965 0.244141
0.645172 0.748779 0.222015
0.687164 0.753845 0.196960
0.732941 0.763702 0.168274
0.783051 0.765106 0.129425
0.833405 0.785339 0.050751
0.892212 0.807220 0.000000
0.929291 0.804443 0.000366
0.958771 0.796967 0.000763
0.983795 0.795959 0.000000
1.000000 0.794952 0.000000
0.006958 0.714111 0.373810
0.006958 0.714111 0.372040
0.006073 0.713226 0.371155
0.001648 0.717163 0.365967
0.001770 0.721069 0.372925
0.000000 0.719299 0.372925
0.014404 0.717163 0.378632
0.064392 0.717163 0.372925
0.113739 0.719177 0.374969
0.164093 0.717163 0.380157
0.192413 0.715363 0.380768
0.222504 0.716278 0.379120
0.257416 0.717163 0.384460
0.285370 0.720551 0.370178
0.315094 0.724609 0.363831
0.352814 0.730804 0.368866
0.387878 0.737518 0.355621
0.427734 0.743317 0.338135
0.462372 0.747131 0.332336
0.503754 0.757263 0.319916
0.545624 0.765106 0.306763
0.590637 0.771667 0.289185
0.633545 0.773834 0.271729
0.680206 0.784332 0.260620
0.723724 0.788635 0.231750
0.772949 0.795593 0.205322
0.814789 0.799133 0.161560
0.864136 0.807709 0.121094
0.920929 0.832642 0.013031
0.959381 0.835693 0.000244
0.987610 0.830231 0.000244
1.000000 0.824799 0.003052
0.003174 0.749908 0.405579
0.003937 0.750671 0.406342
0.010498 0.753082 0.401154
0.035950 0.749908 0.407593
0.064789 0.747498 0.400879
0.093140 0.753082 0.406464
0.125000 0.750671 0.402405
0.160553 0.756104 0.405701
0.183685 0.750916 0.397980
0.212646 0.753082 0.408722
0.241119 0.749908 0.409119
0.271606 0.746735 0.414032
0.293365 0.751556 0.420624
0.317261 0.753204 0.414307
0.342804 0.760925 0.404572
0.370667 0.764832 0.393951
0.397858 0.767639 0.393433
0.439484 0.775604 0.385071
0.476562 0.781921 0.376740
0.510834 0.784454 0.364838
0.551697 0.793793 0.353333
0.586609 0.797974 0.335999
0.632385 0.797729 0.327515
0.680481 0.807739 0.310181
0.717285 0.810242 0.284119
0.767242 0.816589 0.272369
0.805450 0.821381 0.234283
0.846558 0.828583 0.203552
0.891724 0.840118 0.159546
0.942932 0.863373 0.078827
0.984558 0.864380 0.028473
1.000000 0.863647 0.017334
0.138916 0.789642 0.439972
0.150055 0.786346 0.440369
0.158539 0.785706 0.436676
0.168396 0.785706 0.437714
0.179504 0.785706 0.441132
0.193695 0.785706 0.443909
0.214935 0.782410 0.439362
0.235291 0.785065 0.444794
0.251862 0.784454 0.440369
0.268951 0.785706 0.448334
0.296143 0.784454 0.453156
0.311829 0.786469 0.446564
0.335876 0.785980 0.446442
0.360291 0.786102 0.452759
0.385834 0.787872 0.450867
0.408203 0.792145 0.438599
0.430389 0.801544 0.430115
0.460999 0.805328 0.424286
0.490204 0.810242 0.414795
0.522980 0.809875 0.410126
0.559418 0.819611 0.398865
0.598877 0.821625 0.387604
0.636963 0.831635 0.375336
0.673767 0.839600 0.350922
0.711456 0.837311 0.338776
0.753693 0.843781 0.323364
0.793549 0.852386 0.295502
0.830109 0.853271 0.265656
0.873871 0.860474 0.252899
0.918030 0.865540 0.202911
0.969147 0.884247 0.145355
1.000000 0.892212 0.110077
0.244415 0.817596 0.476929
0.245178 0.818207 0.476532
0.253265 0.821259 0.478821
0.264526 0.821014 0.479309
0.268463 0.818085 0.484253
0.274658 0.816956 0.479828
0.290344 0.818848 0.484497
0.303619 0.820129 0.489319
0.314728 0.818085 0.485260
0.334229 0.822144 0.492859
0.353943 0.816833 0.494751
0.369263 0.816193 0.491974
0.384308 0.820007 0.487549
0.407593 0.817596 0.489319
0.425812 0.821503 0.493347
