assets/Presetpro - Cali Vibes.cube
#Created by: Adobe Photoshop Export Color Lookup Plugin
#Copyright: (C) Copyright 2018 https://www.presetpro.com and Tim Martin
TITLE "Presetpro - Cali Vibes"
#LUT size
LUT_3D_SIZE 5
#data domain
#LUT data points
DOMAIN_MIN 0.000000 0.000000 0.000000
DOMAIN_MAX 0.903226 0.903226 0.903226
0.132629 0.143280 0.147644
0.211487 0.140625 0.157623
0.456909 0.125824 0.127563
0.799500 0.087982 0.092621
0.963837 0.177551 0.129517
0.100403 0.237305 0.177124
0.250214 0.234894 0.139160
0.403473 0.271301 0.103821
0.715851 0.318085 0.044708
0.925323 0.359589 0.057495
0.042206 0.580109 0.187836
0.012878 0.553925 0.224121
0.723053 0.588348 0.117737
0.845001 0.535126 0.055878
0.930511 0.554565 0.021332
0.132996 0.785736 0.512451
0.147858 0.785980 0.517914
0.565704 0.826019 0.449890
0.940582 0.842407 0.521118
0.969513 0.796051 0.472778
0.644928 0.925537 0.792816
0.666351 0.919312 0.781128
0.734650 0.918762 0.768738
0.885742 0.916962 0.723083
0.970825 0.917725 0.782318
0.119446 0.163544 0.201233
0.176178 0.146118 0.245667
0.418732 0.115845 0.261047
0.824066 0.101288 0.162201
0.965942 0.226715 0.177124
0.115143 0.240936 0.258759
0.220947 0.236023 0.237244
0.462158 0.264618 0.198029
0.813934 0.292969 0.111023
0.969391 0.366211 0.091644
0.020416 0.600433 0.447296
0.017426 0.570923 0.406464
0.670410 0.585663 0.341827
0.807892 0.537659 0.179993
0.947113 0.582123 0.107941
0.314178 0.819794 0.665558
0.342255 0.815857 0.631226
0.586945 0.812134 0.569336
0.929504 0.839966 0.620361
0.968353 0.804199 0.554718
0.712067 0.920288 0.823059
0.708832 0.924103 0.814301
0.766174 0.920868 0.796265
0.886475 0.919617 0.760162
0.970245 0.917328 0.813690
0.088440 0.193604 0.353516
0.133911 0.195831 0.415558
0.250549 0.127777 0.490784
0.601959 0.108368 0.562073
0.865021 0.267975 0.602142
0.118408 0.277618 0.386505
0.150757 0.287781 0.429260
0.346893 0.263885 0.542206
0.673706 0.247833 0.620758
0.918854 0.430054 0.633026
0.081329 0.529083 0.548889
0.180176 0.532104 0.553711
0.485016 0.509827 0.525360
0.789429 0.532227 0.510345
0.963318 0.590332 0.500122
0.365356 0.840515 0.796722
0.493591 0.839661 0.780701
0.660156 0.807678 0.727783
0.908295 0.829254 0.739655
0.955750 0.801178 0.641174
0.743774 0.921661 0.868896
0.777740 0.918701 0.869598
0.819702 0.920258 0.861877
0.880096 0.915436 0.829315
0.958832 0.917633 0.859314
0.006073 0.213623 0.560181
0.097687 0.241882 0.621094
0.172668 0.188538 0.649902
0.492493 0.174683 0.755585
0.677399 0.148163 0.774872
0.074280 0.334259 0.587006
0.128174 0.346680 0.629272
0.220551 0.358948 0.729370
0.497803 0.182709 0.761505
0.686218 0.181213 0.792084
0.140900 0.550751 0.675018
0.223877 0.544281 0.650360
0.341064 0.586975 0.722229
0.696808 0.532593 0.813019
0.890503 0.561279 0.871643
0.421356 0.780975 0.803986
0.507751 0.780701 0.798492
0.661224 0.785339 0.803864
0.795197 0.749054 0.766479
0.940979 0.787903 0.781219
0.745270 0.923676 0.916656
0.779388 0.913910 0.911377
0.855347 0.917175 0.905975
0.921204 0.912811 0.912292
0.949188 0.915833 0.944061
0.130768 0.432404 0.827728
0.154175 0.431396 0.858795
0.208679 0.401337 0.896881
0.274628 0.273041 0.877258
0.611053 0.208710 0.894470
0.168518 0.550873 0.851227
0.187164 0.543976 0.870758
0.229980 0.519104 0.937897
0.351685 0.382080 0.947021
0.613373 0.208862 0.894562
0.347748 0.688202 0.833588
0.358124 0.694458 0.853363
0.356842 0.708099 0.921722
0.565979 0.624481 0.932098
0.798126 0.540131 0.986115
0.569641 0.777222 0.881134
0.589294 0.778168 0.879547
0.653290 0.776764 0.852600
0.706635 0.794556 0.911438
0.914795 0.769592 0.981812
0.693176 0.886078 0.911530
0.731018 0.892090 0.914978
0.815033 0.897278 0.920258
0.908600 0.904602 0.931671
0.948975 0.917908 0.948090
