assets/Presetpro - Fast Film.cube
#Created by: Adobe Photoshop Export Color Lookup Plugin
#Copyright: (C) Copyright 2022 Tim Martin and Presetpro.com
TITLE "Presetpro - Fast Film.jpg"
#LUT size
LUT_3D_SIZE 5
#data domain
#LUT data points
DOMAIN_MIN 0.000000 0.000000 0.000000
DOMAIN_MAX 0.903226 0.903226 0.903226
0.000000 0.000000 0.000000
0.129028 0.027466 0.011780
0.348236 0.027832 0.015686
0.612030 0.005310 0.022278
0.872223 0.104370 0.027069
0.003052 0.135986 0.068420
0.107635 0.162170 0.039215
0.392273 0.160400 0.010895
0.638977 0.168610 0.008728
0.886902 0.221893 0.005707
0.003937 0.356079 0.158234
0.004425 0.356079 0.166962
0.342163 0.420990 0.062347
0.690826 0.438049 0.001251
0.916138 0.424530 0.000000
0.000000 0.607971 0.291595
0.000000 0.609375 0.298309
0.270813 0.629364 0.272491
0.615814 0.686401 0.147766
0.927155 0.724365 0.001770
0.325623 0.849457 0.523987
0.371796 0.847198 0.531555
0.475006 0.851624 0.543213
0.631775 0.876404 0.498413
0.850220 0.911072 0.390259
0.006073 0.027466 0.156464
0.137756 0.044006 0.158234
0.363556 0.032654 0.162537
0.620239 0.105896 0.196075
0.865143 0.168365 0.202271
0.000000 0.161285 0.186951
0.156464 0.176086 0.188721
0.392273 0.190887 0.194794
0.641998 0.207458 0.192139
0.878174 0.256805 0.201385
0.075012 0.388336 0.273743
0.129028 0.386566 0.258423
0.377472 0.432373 0.220978
0.696899 0.428436 0.167328
0.915619 0.435028 0.158234
0.006561 0.625946 0.363556
0.136627 0.620239 0.363953
0.330933 0.634674 0.355743
0.632019 0.689972 0.279816
0.930939 0.723114 0.165192
0.382538 0.854645 0.563690
0.418701 0.852997 0.564575
0.508026 0.853912 0.581299
0.648193 0.877289 0.541443
0.853760 0.908295 0.457947
0.000000 0.078033 0.387085
0.178741 0.093719 0.398346
0.430206 0.125092 0.412750
0.660736 0.127777 0.393524
0.898682 0.126495 0.381775
0.000885 0.203522 0.404907
0.196198 0.217072 0.415802
0.440216 0.251465 0.427551
0.672119 0.253235 0.409210
0.906006 0.247314 0.394043
0.024536 0.420593 0.424896
0.220612 0.430603 0.437561
0.457672 0.454132 0.463745
0.689056 0.455505 0.442352
0.902588 0.469452 0.434113
0.343964 0.659821 0.531311
0.409760 0.658569 0.542175
0.476379 0.655548 0.524353
0.670349 0.697784 0.495117
0.927399 0.704742 0.436798
0.534973 0.861603 0.672974
0.537506 0.863373 0.663361
0.578125 0.864777 0.662231
0.679077 0.872101 0.650848
0.868439 0.910828 0.602783
0.116638 0.158264 0.649994
0.281738 0.170898 0.659485
0.523071 0.217590 0.676025
0.746765 0.277313 0.693115
0.908783 0.317017 0.657318
0.146606 0.264130 0.660736
0.295502 0.278046 0.661987
0.530029 0.317780 0.680328
0.745728 0.374084 0.693878
0.910828 0.401520 0.668182
0.002167 0.446411 0.654663
0.238098 0.451996 0.667297
0.519531 0.493835 0.689453
0.740051 0.552673 0.708649
0.908661 0.560150 0.693878
0.302094 0.682617 0.687805
0.376587 0.686035 0.692108
0.540924 0.694244 0.696014
0.736115 0.720428 0.724365
0.906006 0.707794 0.692474
0.591156 0.883881 0.782806
0.617706 0.879059 0.782806
0.689453 0.881226 0.794952
0.752319 0.882111 0.784058
0.885132 0.909546 0.757874
0.425171 0.327911 0.889069
0.498810 0.346741 0.893860
0.647308 0.389862 0.889435
0.827576 0.479187 0.896912
0.963959 0.554199 0.903992
0.429993 0.407227 0.891327
0.502228 0.419861 0.892609
0.655640 0.458679 0.896515
0.825043 0.538025 0.896515
0.959259 0.596344 0.907410
0.395569 0.543579 0.890442
0.476166 0.553558 0.889923
0.641235 0.586700 0.892975
0.818481 0.646027 0.899170
0.949280 0.694366 0.905121
0.350800 0.723969 0.892212
0.408997 0.717896 0.883881
0.541779 0.710968 0.891327
0.777496 0.753967 0.897675
0.939545 0.808868 0.914734
0.551422 0.897278 0.900818
0.583679 0.897797 0.901703
0.665527 0.904358 0.902588
0.786224 0.904755 0.906525
0.928650 0.921204 0.923981
