assets/Presetpro - Fast Film.cube
#Created by: Adobe Photoshop Export Color Lookup Plugin
#Copyright: (C) Copyright 2022 Tim Martin and Presetpro.com
TITLE "Presetpro - Fast Film.jpg"
#LUT size
LUT_3D_SIZE 8
#data domain
#LUT data points
DOMAIN_MIN 0.000000 0.000000 0.000000
DOMAIN_MAX 0.903226 0.903226 0.903226
0.000000 0.000000 0.000000
0.067688 0.012268 0.000519
0.154083 0.028473 0.015686
0.276642 0.031372 0.023529
0.421906 0.013794 0.023529
0.575989 0.002533 0.035309
0.721954 0.017853 0.024414
0.872223 0.104370 0.027069
0.003418 0.068176 0.028473
0.058319 0.078033 0.016693
0.176575 0.084869 0.013275
0.297760 0.084869 0.019104
0.440491 0.083374 0.018097
0.582947 0.087799 0.020386
0.730682 0.106506 0.019623
0.879059 0.153687 0.021637
0.001007 0.164825 0.077545
0.000519 0.168732 0.080963
0.132446 0.199097 0.034393
0.330048 0.211884 0.008240
0.467072 0.190247 0.002899
0.610901 0.189362 0.001526
0.750427 0.211884 0.005066
0.885376 0.247192 0.002014
0.003937 0.293854 0.138763
0.000519 0.294250 0.132446
0.030365 0.309540 0.120178
0.262482 0.345459 0.051605
0.494385 0.377197 0.000519
0.644928 0.345337 0.003418
0.781403 0.333069 0.000885
0.903992 0.366455 0.004059
0.000000 0.427704 0.192291
0.000000 0.425323 0.197601
0.000000 0.424805 0.204193
0.187958 0.462372 0.162811
0.415833 0.496399 0.078552
0.668213 0.546875 0.004059
0.796478 0.522980 0.000000
0.925232 0.498810 0.000000
0.001404 0.568390 0.267822
0.006439 0.568390 0.267822
0.003052 0.566986 0.269196
0.174805 0.582794 0.263885
0.363068 0.619507 0.215942
0.577606 0.651886 0.134491
0.809113 0.704254 0.002258
0.929291 0.684631 0.000366
0.006958 0.714111 0.373810
0.001770 0.721069 0.372925
0.113739 0.719177 0.374969
0.257416 0.717163 0.384460
0.387878 0.737518 0.355621
0.545624 0.765106 0.306763
0.723724 0.788635 0.231750
0.920929 0.832642 0.013031
0.325623 0.849457 0.523987
0.345734 0.846039 0.524109
0.390381 0.848450 0.531830
0.439972 0.853516 0.541321
0.506531 0.861237 0.533722
0.604309 0.873749 0.503479
0.722076 0.895630 0.461365
0.850220 0.911072 0.390259
0.015167 0.012268 0.077026
0.071594 0.024048 0.080444
0.149139 0.034790 0.082855
0.282074 0.052887 0.098053
0.423431 0.060333 0.107910
0.576721 0.059845 0.111328
0.725891 0.073761 0.111572
0.872498 0.133453 0.119293
0.004425 0.083374 0.088287
0.063751 0.095123 0.106384
0.172668 0.099060 0.101074
0.300171 0.100067 0.101959
0.440125 0.109283 0.106384
0.588623 0.109924 0.111816
0.732849 0.134460 0.110046
0.877289 0.177094 0.117767
0.015167 0.184937 0.143188
0.036316 0.181519 0.131927
0.149139 0.204041 0.111816
0.328125 0.208466 0.101471
0.478333 0.198730 0.092224
0.613525 0.203674 0.095764
0.746002 0.224792 0.094635
0.885651 0.258575 0.101593
0.002899 0.304108 0.182922
0.004822 0.306000 0.185333
0.094727 0.315369 0.171265
0.280060 0.349762 0.130554
0.500854 0.372284 0.076416
0.647308 0.337494 0.064117
0.783569 0.342438 0.062103
0.902466 0.371399 0.061615
0.000000 0.437958 0.229095
0.000519 0.442780 0.232513
0.046143 0.434540 0.238831
0.216278 0.465027 0.207611
0.428589 0.506165 0.151031
0.662109 0.543976 0.010864
0.799377 0.518188 0.003052
0.930939 0.496918 0.000000
0.000519 0.579254 0.295776
0.004791 0.576355 0.302612
0.022888 0.579407 0.305115
0.216797 0.585571 0.303101
0.382172 0.618347 0.253632
0.582672 0.655151 0.190002
0.811279 0.704895 0.007080
0.928772 0.683380 0.001007
0.000885 0.721069 0.389496
0.046570 0.721954 0.392151
0.177490 0.721069 0.395203
0.286774 0.718048 0.402649
0.402924 0.739166 0.388611
0.554352 0.763184 0.342712
0.725616 0.787750 0.273499
0.918793 0.833008 0.137024
0.350037 0.850342 0.539795
0.366089 0.852875 0.541046
0.400391 0.854523 0.549652
0.454132 0.853394 0.558258
0.519043 0.855652 0.547516
0.612549 0.877289 0.526123
0.723480 0.892609 0.482605
0.853394 0.908661 0.420990
0.000000 0.033386 0.181519
0.067688 0.036804 0.184937
0.172668 0.053009 0.189362
0.287018 0.055908 0.186829
0.445435 0.022644 0.183563
0.590149 0.034821 0.196564
0.721069 0.140289 0.227692
0.865143 0.177734 0.233521
0.000000 0.100067 0.201141
0.073120 0.103485 0.197723
0.181030 0.119659 0.210876
0.302185 0.120178 0.201141
0.455688 0.106384 0.193268
0.591034 0.151184 0.217834
0.729797 0.176575 0.219727
0.872986 0.210114 0.231995
0.000000 0.200104 0.212891
0.061859 0.209351 0.214783
0.199097 0.212891 0.230469
0.328125 0.221130 0.226562
0.468964 0.222778 0.222626
0.609741 0.235413 0.219849
0.752319 0.248199 0.228699
0.878937 0.287537 0.225555
0.065277 0.329041 0.261841
0.135345 0.328644 0.271210
0.183044 0.335480 0.260468
0.311066 0.358002 0.242371
0.507660 0.366821 0.216827
0.647430 0.344330 0.212769
0.776855 0.359497 0.208344
0.903717 0.380646 0.206451
0.125580 0.458069 0.319672
0.137360 0.461121 0.319794
0.185303 0.457184 0.305847
0.281433 0.470856 0.303589
0.456055 0.506287 0.264893
0.671722 0.538025 0.216309
0.799500 0.510193 0.200104
0.922974 0.500336 0.185822
0.098541 0.596344 0.369751
0.111053 0.596832 0.361542
0.190369 0.590515 0.362549
0.286133 0.590637 0.370789
0.417969 0.623901 0.342072
0.600769 0.656799 0.295258
0.814056 0.696167 0.223633
0.932831 0.676788 0.197723
0.190002 0.730804 0.452362
0.208862 0.727905 0.448456
0.262238 0.728790 0.447449
0.345215 0.727783 0.448456
0.432770 0.739655 0.439606
0.571930 0.765106 0.412781
0.737518 0.789642 0.362030
0.926117 0.831879 0.278168
0.393677 0.857300 0.570526
0.404419 0.856812 0.574432
0.439606 0.856293 0.577362
0.488159 0.854889 0.583435
0.552307 0.854797 0.591522
0.622528 0.873993 0.564209
0.731323 0.891083 0.532562
0.857697 0.910828 0.478180
0.000000 0.060333 0.316742
0.062347 0.064758 0.319275
0.197723 0.083374 0.323334
0.338501 0.097137 0.336975
0.452911 0.093231 0.318909
0.614044 0.082855 0.318390
0.758148 0.046783 0.311310
0.891724 0.097046 0.316376
0.004425 0.123596 0.329773
0.078430 0.131439 0.335846
0.215820 0.144714 0.343323
0.341400 0.155975 0.349640
0.464539 0.151672 0.327118
0.614166 0.148254 0.327759
0.761932 0.129669 0.318268
0.888672 0.195343 0.332581
0.000000 0.217316 0.337891
0.038208 0.220245 0.343323
0.216309 0.235931 0.350159
0.355591 0.254120 0.355713
0.487061 0.254639 0.357849
0.626831 0.247681 0.340790
0.755859 0.263885 0.343445
0.874390 0.321686 0.369110
0.003937 0.343323 0.356598
0.095764 0.350159 0.360016
0.226166 0.360016 0.365448
0.365967 0.372284 0.372894
0.506531 0.374176 0.373291
0.638977 0.373810 0.362518
0.769897 0.386200 0.363556
0.899689 0.407562 0.356964
0.168030 0.487549 0.399384
0.217468 0.486023 0.404694
0.312988 0.487549 0.418854
0.374176 0.489960 0.414795
0.497284 0.517914 0.391388
0.678192 0.523865 0.373016
0.802307 0.500458 0.343048
0.919037 0.512604 0.351654
0.312225 0.614166 0.475769
0.336487 0.617981 0.481598
0.355194 0.618103 0.471832
0.384033 0.615570 0.460480
0.464020 0.627838 0.453247
0.629852 0.662262 0.426819
0.816956 0.688690 0.387848
0.931824 0.668579 0.358643
0.379242 0.738525 0.549377
0.385315 0.740051 0.541565
0.394165 0.742584 0.533722
0.431732 0.738525 0.527374
0.496033 0.737518 0.528656
0.600891 0.770020 0.507538
0.747253 0.791656 0.466156
0.926758 0.829102 0.415161
0.479431 0.861237 0.634399
0.487030 0.860352 0.636688
0.495239 0.859711 0.628967
0.526611 0.860107 0.625427
0.583313 0.857697 0.638336
0.646179 0.874023 0.627563
0.741180 0.888184 0.596588
0.862885 0.906250 0.558014
0.002014 0.096283 0.460999
0.081604 0.106018 0.462006
0.230469 0.119690 0.470978
0.380249 0.144867 0.480347
0.518036 0.158905 0.488556
0.625824 0.154968 0.464417
0.772949 0.175842 0.466064
0.903870 0.194061 0.468201
0.000000 0.155975 0.470337
0.114868 0.158020 0.472870
0.251099 0.169769 0.482117
0.388977 0.195557 0.487549
0.530182 0.207092 0.497284
0.630005 0.206085 0.475403
0.779266 0.225433 0.474915
0.908295 0.234161 0.474274
0.002899 0.245300 0.481598
0.103485 0.249207 0.479187
0.245270 0.264893 0.486542
0.401276 0.281952 0.502350
0.534760 0.302216 0.503235
0.643890 0.300842 0.488556
0.784821 0.313995 0.487549
0.905273 0.314606 0.477173
0.001526 0.359528 0.484009
0.061462 0.363922 0.483093
0.224152 0.370758 0.487549
0.394806 0.392792 0.509186
0.539551 0.420380 0.520081
0.657837 0.421875 0.510193
0.785736 0.409119 0.499969
0.902466 0.416565 0.490051
0.112091 0.500458 0.502350
0.172943 0.500336 0.500854
0.286530 0.505280 0.512085
0.412384 0.520447 0.523346
0.551178 0.529694 0.541565
0.668945 0.529816 0.527771
0.787750 0.528809 0.512085
0.904236 0.535767 0.508179
0.309692 0.633148 0.546875
0.335602 0.641510 0.555725
0.402924 0.641510 0.560669
0.494873 0.641510 0.573822
0.550446 0.644409 0.570923
0.658722 0.670990 0.552460
0.814423 0.674530 0.525879
0.933838 0.648956 0.493622
0.447205 0.758514 0.619995
0.465027 0.757385 0.634674
0.503357 0.756226 0.635803
0.541565 0.756256 0.629761
0.567871 0.757263 0.619873
0.638214 0.768372 0.613037
0.766998 0.794434 0.588501
0.927887 0.821503 0.551941
0.576477 0.864014 0.716644
0.584595 0.864014 0.712860
0.584839 0.867035 0.704498
0.600525 0.864624 0.697540
0.624542 0.867554 0.693115
0.680969 0.871094 0.698669
0.758270 0.888184 0.676788
0.869446 0.910309 0.645050
0.068970 0.146240 0.617737
0.160675 0.148651 0.615051
0.286163 0.163452 0.617584
0.433136 0.185944 0.632629
0.582703 0.226837 0.643524
0.704254 0.248199 0.654663
0.780396 0.248962 0.619629
0.911438 0.299805 0.620514
0.106659 0.196350 0.613525
0.185577 0.200775 0.624420
0.299927 0.210999 0.627838
0.442139 0.228577 0.630249
0.581665 0.271362 0.645569
0.706787 0.289581 0.654419
0.784698 0.293488 0.626953
0.910187 0.338135 0.633789
0.108673 0.278687 0.623413
0.181671 0.281586 0.624054
0.306122 0.295258 0.629211
0.441498 0.315002 0.641510
0.588501 0.351807 0.654785
0.708160 0.373932 0.662262
0.791901 0.372559 0.631744
0.912598 0.407715 0.632263
0.005096 0.382538 0.621521
0.135101 0.387970 0.620514
0.287170 0.394287 0.629852
0.439972 0.419342 0.643005
0.585083 0.453766 0.655792
0.706665 0.478821 0.668579
0.790131 0.479309 0.650726
0.913727 0.499817 0.649963
0.077332 0.510071 0.628357
0.155090 0.515015 0.629242
0.274261 0.516510 0.636322
0.402649 0.518433 0.638611
0.572815 0.549805 0.657837
0.704742 0.589508 0.676788
0.797363 0.585602 0.667328
0.910553 0.575470 0.654785
0.263641 0.647949 0.654663
0.299438 0.647949 0.655304
0.375458 0.652893 0.655670
0.468445 0.662506 0.665161
0.585083 0.668945 0.673370
0.701721 0.683258 0.688568
0.808105 0.674255 0.674896
0.906281 0.672882 0.655426
0.447937 0.772430 0.694519
0.466919 0.772949 0.697540
0.509186 0.776733 0.703735
0.573822 0.776855 0.708679
0.648956 0.777222 0.722076
0.698547 0.780914 0.713226
0.789520 0.803802 0.697906
0.922333 0.805206 0.674652
0.586334 0.880829 0.763184
0.593811 0.879333 0.765717
0.620880 0.876923 0.768005
0.661713 0.876282 0.774963
0.704895 0.876404 0.771027
0.725494 0.877930 0.770782
0.782562 0.891083 0.762329
0.881226 0.909668 0.739166
0.240875 0.216064 0.763336
0.284637 0.218353 0.756866
0.381653 0.230621 0.764069
0.502960 0.254395 0.772034
0.632904 0.291595 0.775970
0.755341 0.355347 0.785858
0.848328 0.382935 0.791656
0.910828 0.376984 0.760284
0.255798 0.254639 0.761688
0.304993 0.258057 0.768494
0.392548 0.272858 0.766998
0.505615 0.290070 0.770386
0.632782 0.332825 0.779388
0.752808 0.392029 0.788116
0.849609 0.416199 0.790009
0.906128 0.409241 0.762817
0.255432 0.333588 0.767120
0.298920 0.336487 0.766113
0.393433 0.347382 0.767883
0.510193 0.364594 0.773315
0.632904 0.403290 0.777863
0.754852 0.458191 0.786987
0.849335 0.483765 0.796478
0.907166 0.471985 0.768005
0.223938 0.423279 0.766602
0.277679 0.430237 0.767120
0.378876 0.440582 0.771912
0.504486 0.461609 0.774445
0.635681 0.492462 0.783173
0.758148 0.543091 0.794434
0.845276 0.564209 0.797363
0.904724 0.558258 0.778381
0.110840 0.529816 0.754486
0.183685 0.529175 0.755859
0.320923 0.534607 0.757263
0.466919 0.551300 0.769531
0.612030 0.581665 0.782684
0.747375 0.624298 0.798859
0.840607 0.653412 0.806335
0.907654 0.647461 0.784210
0.256317 0.663635 0.772064
0.294128 0.664032 0.767639
0.357635 0.664154 0.773438
0.449829 0.663116 0.770905
0.563721 0.670105 0.780273
0.717896 0.700317 0.796478
0.830383 0.739166 0.813049
0.906128 0.733093 0.801788
0.404297 0.780792 0.776855
0.431763 0.783813 0.785583
0.471100 0.782806 0.785706
0.549408 0.787109 0.791901
0.633667 0.789520 0.797607
0.728027 0.796478 0.806213
0.829620 0.812164 0.816956
0.909058 0.803925 0.807739
0.588104 0.888550 0.824554
0.601654 0.892975 0.824432
0.623901 0.888062 0.829224
0.665527 0.891968 0.831635
0.725891 0.890594 0.835693
0.788757 0.893494 0.842896
0.823914 0.889954 0.837585
0.900696 0.912598 0.828217
0.425171 0.327911 0.889069
0.450592 0.338898 0.885651
0.510315 0.348145 0.887299
0.606720 0.372559 0.894623
0.702972 0.407990 0.896515
0.806854 0.468842 0.899445
0.891479 0.534485 0.900818
0.963959 0.554199 0.903992
0.429474 0.360657 0.892609
0.457825 0.367249 0.892853
0.517639 0.373932 0.887299
0.601379 0.400513 0.891571
0.703369 0.436829 0.892365
0.804932 0.491852 0.895752
0.890961 0.554077 0.902985
0.959900 0.571533 0.897675
0.434540 0.425049 0.893616
0.458832 0.428467 0.892090
0.515228 0.437195 0.888184
0.603790 0.460846 0.889069
0.701965 0.494995 0.891083
0.803284 0.537750 0.896393
0.883759 0.600128 0.898041
0.956116 0.611877 0.907288
0.419373 0.505371 0.889435
0.450592 0.509277 0.892609
0.511566 0.518646 0.890442
0.599487 0.537109 0.890961
0.701477 0.563812 0.895905
0.795074 0.606323 0.895508
0.883240 0.649963 0.901947
0.950287 0.664642 0.902344
0.367371 0.587616 0.885376
0.394806 0.591156 0.887665
0.469055 0.597351 0.891083
0.571533 0.611755 0.892609
0.681335 0.632385 0.896912
0.786346 0.668701 0.900330
0.876678 0.708679 0.903595
0.946381 0.722961 0.908142
0.323364 0.691711 0.883759
0.346252 0.691101 0.885132
0.397980 0.686798 0.883759
0.496246 0.690582 0.888672
0.633270 0.702087 0.895508
0.761536 0.726257 0.896912
0.867554 0.771179 0.909668
0.937897 0.792175 0.912323
0.431519 0.803925 0.891724
0.448090 0.801788 0.888947
0.486786 0.803284 0.891602
0.546509 0.802795 0.899445
0.621521 0.803436 0.897034
0.704742 0.800385 0.897034
0.844025 0.824432 0.910706
0.929535 0.865021 0.917908
0.551422 0.897278 0.900818
0.566742 0.896515 0.897278
0.591644 0.898285 0.902985
0.637177 0.900818 0.900818
0.702850 0.900818 0.904755
0.768646 0.904755 0.907288
0.840118 0.911713 0.918274
0.928650 0.921204 0.923981
